;FLAVOR:Marlin
;Layer height: 0.20
M82 ;absolute extrusion mode
G21 ;metric values
G90 ;absolute positioning
M107 ;Fan off
M140 S70 ;set bed temp
M190 S70 ;wait for bed temp
M104 S190 ;set extruder0 temp
M109 S190 ;wait for extruder0 temp
G28 X0 Y0 ;auto-home all axes
G28 Z0 ;auto-home all axes
G1 Z15 F6000 ;raise extruder
G92 E0 ;Zero extruder
M117 Printing...
;LAYER_COUNT:363
;LAYER:0
( Nozzle 0 )
G1 Z0.20 F300
G0 X5.62 Y10.00 F6000
G1 E3.000 F1800
G1 X5.62 Y20.00 E4.429 F3600
G1 E1.429 F1800
;LAYER:1
( Nozzle 0 )
;LAYER:2
( Nozzle 0 )
;LAYER:3
( Nozzle 0 )
G1 Z0.80 F300
G0 X131.42 Y98.98 F6000
G1 E4.429 F1800
G1 X131.42 Y98.98 E4.429 F3600
G1 X131.42 Y101.02 E4.721 F3600
G1 X131.42 Y101.02 E4.721 F3600
G1 X131.42 Y98.98 E5.013 F3600
G1 E2.013 F1800
G0 X68.58 Y98.98 F6000
G1 E5.013 F1800
G1 X68.58 Y101.02 E5.304 F3600
G1 X68.58 Y101.02 E5.305 F3600
G1 X68.58 Y98.98 E5.596 F3600
G1 X68.58 Y98.98 E5.597 F3600
G1 E2.597 F1800
;LAYER:4
( Nozzle 0 )
G1 Z1.00 F300
G0 X131.47 Y98.98 F6000
G1 E5.597 F1800
G1 X131.47 Y101.02 E5.889 F3600
G1 X131.32 Y101.02 E5.910 F3600
G1 X131.32 Y98.98 E6.201 F3600
G1 X131.47 Y98.98 E6.223 F3600
G1 E3.223 F1800
G0 X68.68 Y98.98 F6000
G1 E6.223 F1800
G1 X68.53 Y98.98 E6.244 F3600
G1 X68.53 Y101.02 E6.535 F3600
G1 X68.68 Y101.02 E6.557 F3600
G1 X68.68 Y98.98 E6.848 F3600
G1 E3.848 F1800
;LAYER:5
( Nozzle 0 )
G1 Z1.20 F300
G0 X131.22 Y98.98 F6000
G1 E6.848 F1800
G1 X131.51 Y98.98 E6.890 F3600
G1 X131.51 Y101.02 E7.181 F3600
G1 X131.22 Y101.02 E7.223 F3600
G1 X131.22 Y98.98 E7.515 F3600
G1 E4.515 F1800
G0 X68.49 Y98.98 F6000
G1 E7.515 F1800
G1 X68.49 Y101.02 E7.806 F3600
G1 X68.78 Y101.02 E7.848 F3600
G1 X68.78 Y98.98 E8.140 F3600
G1 X68.49 Y98.98 E8.182 F3600
G1 E5.182 F1800
;LAYER:6
( Nozzle 0 )
G1 Z1.40 F300
G0 X131.12 Y101.02 F6000
G1 E8.182 F1800
G1 X131.12 Y98.98 E8.473 F3600
G1 X131.56 Y98.98 E8.536 F3600
G1 X131.56 Y101.02 E8.827 F3600
G1 X131.12 Y101.02 E8.890 F3600
G1 E5.890 F1800
G0 X68.44 Y101.02 F6000
G1 E8.890 F1800
G1 X68.88 Y101.02 E8.952 F3600
G1 X68.88 Y98.98 E9.244 F3600
G1 X68.44 Y98.98 E9.306 F3600
G1 X68.44 Y101.02 E9.598 F3600
G1 E6.598 F1800
;LAYER:7
( Nozzle 0 )
G1 Z1.60 F300
G0 X131.60 Y101.02 F6000
G1 E9.598 F1800
G1 X131.02 Y101.02 E9.681 F3600
G1 X131.02 Y98.98 E9.972 F3600
G1 X131.60 Y98.98 E10.055 F3600
G1 X131.60 Y101.02 E10.347 F3600
G1 E7.347 F1800
G0 X68.98 Y101.02 F6000
G1 E10.347 F1800
G1 X68.98 Y98.98 E10.638 F3600
G1 X68.39 Y98.98 E10.721 F3600
G1 X68.39 Y101.02 E11.013 F3600
G1 X68.98 Y101.02 E11.096 F3600
G1 E8.096 F1800
;LAYER:8
( Nozzle 0 )
G1 Z1.80 F300
G0 X130.93 Y101.02 F6000
G1 E11.096 F1800
G1 X130.93 Y98.98 E11.387 F3600
G1 X131.65 Y98.98 E11.491 F3600
G1 X131.65 Y101.02 E11.783 F3600
G1 X130.93 Y101.02 E11.887 F3600
G1 E8.887 F1800
G0 X68.35 Y101.02 F6000
G1 E11.887 F1800
G1 X69.07 Y101.02 E11.990 F3600
G1 X69.07 Y98.98 E12.282 F3600
G1 X68.35 Y98.98 E12.386 F3600
G1 X68.35 Y101.02 E12.677 F3600
G1 E9.677 F1800
;LAYER:9
( Nozzle 0 )
G1 Z2.00 F300
G0 X130.83 Y98.98 F6000
G1 E12.677 F1800
G1 X131.70 Y98.98 E12.802 F3600
G1 X131.70 Y101.02 E13.093 F3600
G1 X130.83 Y101.02 E13.217 F3600
G1 X130.83 Y98.98 E13.509 F3600
G1 E10.509 F1800
G0 X68.30 Y98.98 F6000
G1 E13.509 F1800
G1 X68.30 Y101.02 E13.800 F3600
G1 X69.17 Y101.02 E13.925 F3600
G1 X69.17 Y98.98 E14.216 F3600
G1 X68.30 Y98.98 E14.341 F3600
G1 E11.341 F1800
;LAYER:10
( Nozzle 0 )
G1 Z2.20 F300
G0 X131.24 Y100.52 F6000
G1 E14.341 F1800
G1 X131.23 Y100.52 E14.343 F3600
G1 X131.23 Y99.48 E14.491 F3600
G1 X131.24 Y99.48 E14.493 F3600
G1 X131.24 Y100.52 E14.642 F3600
G1 E11.642 F1800
G0 X68.77 Y100.52 F6000
G1 E14.642 F1800
G1 X68.77 Y99.48 E14.791 F3600
G1 X68.75 Y99.48 E14.793 F3600
G1 X68.75 Y100.52 E14.941 F3600
G1 X68.77 Y100.52 E14.943 F3600
G1 E11.943 F1800
G0 X131.74 Y101.02 F6000
G1 E14.943 F1800
G1 X130.73 Y101.02 E15.088 F3600
G1 X130.73 Y98.98 E15.380 F3600
G1 X131.74 Y98.98 E15.525 F3600
G1 X131.74 Y101.02 E15.816 F3600
G1 E12.816 F1800
G0 X69.27 Y101.02 F6000
G1 E15.816 F1800
G1 X69.27 Y98.98 E16.108 F3600
G1 X68.25 Y98.98 E16.253 F3600
G1 X68.25 Y101.02 E16.544 F3600
G1 X69.27 Y101.02 E16.689 F3600
G1 E13.689 F1800
;LAYER:11
( Nozzle 0 )
G1 Z2.40 F300
G0 X131.29 Y99.48 F6000
G1 E16.689 F1800
G1 X131.29 Y100.52 E16.838 F3600
G1 X131.13 Y100.52 E16.860 F3600
G1 X131.13 Y99.48 E17.009 F3600
G1 X131.29 Y99.48 E17.032 F3600
G1 E14.032 F1800
G0 X68.87 Y99.48 F6000
G1 E17.032 F1800
G1 X68.71 Y99.48 E17.054 F3600
G1 X68.71 Y100.52 E17.203 F3600
G1 X68.87 Y100.52 E17.226 F3600
G1 X68.87 Y99.48 E17.374 F3600
G1 E14.374 F1800
G0 X131.79 Y98.98 F6000
G1 E17.374 F1800
G1 X131.79 Y101.02 E17.666 F3600
G1 X130.63 Y101.02 E17.831 F3600
G1 X130.63 Y98.98 E18.123 F3600
G1 X131.79 Y98.98 E18.288 F3600
G1 E15.288 F1800
G0 X69.37 Y98.98 F6000
G1 E18.288 F1800
G1 X68.21 Y98.98 E18.454 F3600
G1 X68.21 Y101.02 E18.745 F3600
G1 X69.37 Y101.02 E18.911 F3600
G1 X69.37 Y98.98 E19.202 F3600
G1 E16.202 F1800
;LAYER:12
( Nozzle 0 )
G1 Z2.60 F300
G0 X131.03 Y100.52 F6000
G1 E19.202 F1800
G1 X131.03 Y99.48 E19.351 F3600
G1 X131.34 Y99.48 E19.394 F3600
G1 X131.34 Y100.52 E19.543 F3600
G1 X131.03 Y100.52 E19.586 F3600
G1 E16.586 F1800
G0 X68.66 Y100.52 F6000
G1 E19.586 F1800
G1 X68.97 Y100.52 E19.630 F3600
G1 X68.97 Y99.48 E19.778 F3600
G1 X68.66 Y99.48 E19.821 F3600
G1 X68.66 Y100.52 E19.970 F3600
G1 E16.970 F1800
G0 X130.53 Y101.02 F6000
G1 E19.970 F1800
G1 X130.53 Y98.98 E20.261 F3600
G1 X131.84 Y98.98 E20.448 F3600
G1 X131.84 Y101.02 E20.739 F3600
G1 X130.53 Y101.02 E20.925 F3600
G1 E17.925 F1800
G0 X68.16 Y101.02 F6000
G1 E20.925 F1800
G1 X69.47 Y101.02 E21.112 F3600
G1 X69.47 Y98.98 E21.403 F3600
G1 X68.16 Y98.98 E21.589 F3600
G1 X68.16 Y101.02 E21.881 F3600
G1 E18.881 F1800
;LAYER:13
( Nozzle 0 )
G1 Z2.80 F300
G0 X131.38 Y100.52 F6000
G1 E21.881 F1800
G1 X130.94 Y100.52 E21.944 F3600
G1 X130.94 Y99.48 E22.093 F3600
G1 X131.38 Y99.48 E22.157 F3600
G1 X131.38 Y100.52 E22.305 F3600
G1 E19.305 F1800
G0 X69.06 Y100.52 F6000
G1 E22.305 F1800
G1 X69.06 Y99.48 E22.454 F3600
G1 X68.62 Y99.48 E22.518 F3600
G1 X68.62 Y100.52 E22.666 F3600
G1 X69.06 Y100.52 E22.730 F3600
G1 E19.730 F1800
G0 X131.88 Y101.02 F6000
G1 E22.730 F1800
G1 X130.44 Y101.02 E22.937 F3600
G1 X130.44 Y98.98 E23.228 F3600
G1 X131.88 Y98.98 E23.435 F3600
G1 X131.88 Y101.02 E23.727 F3600
G1 E20.727 F1800
G0 X69.56 Y101.02 F6000
G1 E23.727 F1800
G1 X69.56 Y98.98 E24.018 F3600
G1 X68.12 Y98.98 E24.225 F3600
G1 X68.12 Y101.02 E24.516 F3600
G1 X69.56 Y101.02 E24.723 F3600
G1 E21.723 F1800
;LAYER:14
( Nozzle 0 )
G1 Z3.00 F300
G0 X131.43 Y100.52 F6000
G1 E24.723 F1800
G1 X130.84 Y100.52 E24.807 F3600
G1 X130.84 Y99.48 E24.956 F3600
G1 X131.43 Y99.48 E25.041 F3600
G1 X131.43 Y100.52 E25.189 F3600
G1 E22.189 F1800
G0 X69.16 Y100.52 F6000
G1 E25.189 F1800
G1 X69.16 Y99.48 E25.338 F3600
G1 X68.57 Y99.48 E25.422 F3600
G1 X68.57 Y100.52 E25.571 F3600
G1 X69.16 Y100.52 E25.655 F3600
G1 E22.655 F1800
G0 X131.93 Y101.02 F6000
G1 E25.655 F1800
G1 X130.34 Y101.02 E25.883 F3600
G1 X130.34 Y98.98 E26.174 F3600
G1 X131.93 Y98.98 E26.401 F3600
G1 X131.93 Y101.02 E26.693 F3600
G1 E23.693 F1800
G0 X69.66 Y101.02 F6000
G1 E26.693 F1800
G1 X69.66 Y98.98 E26.984 F3600
G1 X68.07 Y98.98 E27.212 F3600
G1 X68.07 Y101.02 E27.503 F3600
G1 X69.66 Y101.02 E27.730 F3600
G1 E24.730 F1800
;LAYER:15
( Nozzle 0 )
G1 Z3.20 F300
G0 X131.47 Y99.48 F6000
G1 E27.730 F1800
G1 X131.47 Y100.52 E27.879 F3600
G1 X130.74 Y100.52 E27.984 F3600
G1 X130.74 Y99.48 E28.133 F3600
G1 X131.47 Y99.48 E28.238 F3600
G1 E25.238 F1800
G0 X69.26 Y99.48 F6000
G1 E28.238 F1800
G1 X68.52 Y99.48 E28.343 F3600
G1 X68.52 Y100.52 E28.491 F3600
G1 X69.26 Y100.52 E28.597 F3600
G1 X69.26 Y99.48 E28.745 F3600
G1 E25.745 F1800
G0 X131.97 Y98.98 F6000
G1 E28.745 F1800
G1 X131.97 Y101.02 E29.037 F3600
G1 X130.24 Y101.02 E29.285 F3600
G1 X130.24 Y98.98 E29.576 F3600
G1 X131.97 Y98.98 E29.824 F3600
G1 E26.824 F1800
G0 X69.76 Y98.98 F6000
G1 E29.824 F1800
G1 X68.02 Y98.98 E30.072 F3600
G1 X68.02 Y101.02 E30.363 F3600
G1 X69.76 Y101.02 E30.611 F3600
G1 X69.76 Y98.98 E30.903 F3600
G1 E27.903 F1800
;LAYER:16
( Nozzle 0 )
G1 Z3.40 F300
G0 X130.64 Y100.52 F6000
G1 E30.903 F1800
G1 X130.64 Y99.48 E31.051 F3600
G1 X131.52 Y99.48 E31.177 F3600
G1 X131.52 Y100.52 E31.326 F3600
G1 X130.64 Y100.52 E31.452 F3600
G1 E28.452 F1800
G0 X68.48 Y100.52 F6000
G1 E31.452 F1800
G1 X69.36 Y100.52 E31.577 F3600
G1 X69.36 Y99.48 E31.726 F3600
G1 X68.48 Y99.48 E31.852 F3600
G1 X68.48 Y100.52 E32.000 F3600
G1 E29.000 F1800
G0 X130.14 Y101.02 F6000
G1 E32.000 F1800
G1 X130.14 Y98.98 E32.292 F3600
G1 X132.02 Y98.98 E32.560 F3600
G1 X132.02 Y101.02 E32.852 F3600
G1 X130.14 Y101.02 E33.121 F3600
G1 E30.121 F1800
G0 X67.98 Y101.02 F6000
G1 E33.121 F1800
G1 X69.86 Y101.02 E33.389 F3600
G1 X69.86 Y98.98 E33.681 F3600
G1 X67.98 Y98.98 E33.949 F3600
G1 X67.98 Y101.02 E34.241 F3600
G1 E31.241 F1800
;LAYER:17
( Nozzle 0 )
G1 Z3.60 F300
G0 X130.54 Y100.52 F6000
G1 E34.241 F1800
G1 X130.54 Y99.48 E34.389 F3600
G1 X131.57 Y99.48 E34.535 F3600
G1 X131.57 Y100.52 E34.684 F3600
G1 X130.54 Y100.52 E34.830 F3600
G1 E31.830 F1800
G0 X68.43 Y100.52 F6000
G1 E34.830 F1800
G1 X69.46 Y100.52 E34.977 F3600
G1 X69.46 Y99.48 E35.125 F3600
G1 X68.43 Y99.48 E35.271 F3600
G1 X68.43 Y100.52 E35.420 F3600
G1 E32.420 F1800
G0 X130.04 Y101.02 F6000
G1 E35.420 F1800
G1 X130.04 Y98.98 E35.711 F3600
G1 X132.07 Y98.98 E36.001 F3600
G1 X132.07 Y101.02 E36.292 F3600
G1 X130.04 Y101.02 E36.581 F3600
G1 E33.581 F1800
G0 X67.93 Y101.02 F6000
G1 E36.581 F1800
G1 X69.96 Y101.02 E36.870 F3600
G1 X69.96 Y98.98 E37.162 F3600
G1 X67.93 Y98.98 E37.451 F3600
G1 X67.93 Y101.02 E37.742 F3600
G1 E34.742 F1800
;LAYER:18
( Nozzle 0 )
G1 Z3.80 F300
G0 X130.44 Y100.52 F6000
G1 E37.742 F1800
G1 X130.44 Y99.48 E37.891 F3600
G1 X131.61 Y99.48 E38.058 F3600
G1 X131.61 Y100.52 E38.207 F3600
G1 X130.44 Y100.52 E38.374 F3600
G1 E35.374 F1800
G0 X68.39 Y100.52 F6000
G1 E38.374 F1800
G1 X69.56 Y100.52 E38.541 F3600
G1 X69.56 Y99.48 E38.689 F3600
G1 X68.39 Y99.48 E38.856 F3600
G1 X68.39 Y100.52 E39.005 F3600
G1 E36.005 F1800
G0 X129.94 Y101.02 F6000
G1 E39.005 F1800
G1 X129.94 Y98.98 E39.296 F3600
G1 X132.11 Y98.98 E39.606 F3600
G1 X132.11 Y101.02 E39.898 F3600
G1 X129.94 Y101.02 E40.208 F3600
G1 E37.208 F1800
G0 X67.89 Y101.02 F6000
G1 E40.208 F1800
G1 X70.06 Y101.02 E40.518 F3600
G1 X70.06 Y98.98 E40.809 F3600
G1 X67.89 Y98.98 E41.119 F3600
G1 X67.89 Y101.02 E41.410 F3600
G1 E38.410 F1800
;LAYER:19
( Nozzle 0 )
G1 Z4.00 F300
G0 X131.66 Y100.52 F6000
G1 E41.410 F1800
G1 X130.35 Y100.52 E41.598 F3600
G1 X130.35 Y99.48 E41.746 F3600
G1 X131.66 Y99.48 E41.934 F3600
G1 X131.66 Y100.52 E42.083 F3600
G1 E39.083 F1800
G0 X69.65 Y100.52 F6000
G1 E42.083 F1800
G1 X69.65 Y99.48 E42.231 F3600
G1 X68.34 Y99.48 E42.419 F3600
G1 X68.34 Y100.52 E42.567 F3600
G1 X69.65 Y100.52 E42.755 F3600
G1 E39.755 F1800
G0 X132.16 Y101.02 F6000
G1 E42.755 F1800
G1 X129.85 Y101.02 E43.085 F3600
G1 X129.85 Y98.98 E43.377 F3600
G1 X132.16 Y98.98 E43.707 F3600
G1 X132.16 Y101.02 E43.999 F3600
G1 E40.999 F1800
G0 X70.15 Y101.02 F6000
G1 E43.999 F1800
G1 X70.15 Y98.98 E44.290 F3600
G1 X67.84 Y98.98 E44.620 F3600
G1 X67.84 Y101.02 E44.912 F3600
G1 X70.15 Y101.02 E45.242 F3600
G1 E42.242 F1800
;LAYER:20
( Nozzle 0 )
G1 Z4.20 F300
G0 X131.71 Y100.52 F6000
G1 E45.242 F1800
G1 X130.25 Y100.52 E45.451 F3600
G1 X130.25 Y99.48 E45.599 F3600
G1 X131.71 Y99.48 E45.807 F3600
G1 X131.71 Y100.52 E45.956 F3600
G1 E42.956 F1800
G0 X69.75 Y100.52 F6000
G1 E45.956 F1800
G1 X69.75 Y99.48 E46.105 F3600
G1 X68.29 Y99.48 E46.313 F3600
G1 X68.29 Y100.52 E46.461 F3600
G1 X69.75 Y100.52 E46.669 F3600
G1 E43.669 F1800
G0 X132.21 Y101.02 F6000
G1 E46.669 F1800
G1 X129.75 Y101.02 E47.021 F3600
G1 X129.75 Y98.98 E47.312 F3600
G1 X132.21 Y98.98 E47.663 F3600
G1 X132.21 Y101.02 E47.955 F3600
G1 E44.955 F1800
G0 X70.25 Y101.02 F6000
G1 E47.955 F1800
G1 X70.25 Y98.98 E48.246 F3600
G1 X67.79 Y98.98 E48.597 F3600
G1 X67.79 Y101.02 E48.888 F3600
G1 X70.25 Y101.02 E49.239 F3600
G1 E46.239 F1800
;LAYER:21
( Nozzle 0 )
G1 Z4.40 F300
G0 X131.75 Y99.48 F6000
G1 E49.239 F1800
G1 X131.75 Y100.52 E49.388 F3600
G1 X130.15 Y100.52 E49.617 F3600
G1 X130.15 Y99.48 E49.765 F3600
G1 X131.75 Y99.48 E49.994 F3600
G1 E46.994 F1800
G0 X69.85 Y99.48 F6000
G1 E49.994 F1800
G1 X68.25 Y99.48 E50.223 F3600
G1 X68.25 Y100.52 E50.372 F3600
G1 X69.85 Y100.52 E50.601 F3600
G1 X69.85 Y99.48 E50.749 F3600
G1 E47.749 F1800
G0 X132.25 Y98.98 F6000
G1 E50.749 F1800
G1 X132.25 Y101.02 E51.041 F3600
G1 X129.65 Y101.02 E51.412 F3600
G1 X129.65 Y98.98 E51.704 F3600
G1 X132.25 Y98.98 E52.075 F3600
G1 E49.075 F1800
G0 X70.35 Y98.98 F6000
G1 E52.075 F1800
G1 X67.75 Y98.98 E52.447 F3600
G1 X67.75 Y101.02 E52.739 F3600
G1 X70.35 Y101.02 E53.110 F3600
G1 X70.35 Y98.98 E53.402 F3600
G1 E50.402 F1800
;LAYER:22
( Nozzle 0 )
G1 Z4.60 F300
G0 X130.05 Y99.48 F6000
G1 E53.402 F1800
G1 X131.80 Y99.48 E53.651 F3600
G1 X131.80 Y100.52 E53.800 F3600
G1 X130.05 Y100.52 E54.049 F3600
G1 X130.05 Y99.48 E54.198 F3600
G1 E51.198 F1800
G0 X68.20 Y99.48 F6000
G1 E54.198 F1800
G1 X68.20 Y100.52 E54.347 F3600
G1 X69.95 Y100.52 E54.596 F3600
G1 X69.95 Y99.48 E54.745 F3600
G1 X68.20 Y99.48 E54.994 F3600
G1 E51.994 F1800
G0 X129.55 Y98.98 F6000
G1 E54.994 F1800
G1 X132.30 Y98.98 E55.386 F3600
G1 X132.30 Y101.02 E55.678 F3600
G1 X129.55 Y101.02 E56.070 F3600
G1 X129.55 Y98.98 E56.362 F3600
G1 E53.362 F1800
G0 X67.70 Y98.98 F6000
G1 E56.362 F1800
G1 X67.70 Y101.02 E56.653 F3600
G1 X70.45 Y101.02 E57.045 F3600
G1 X70.45 Y98.98 E57.337 F3600
G1 X67.70 Y98.98 E57.729 F3600
G1 E54.729 F1800
G0 X68.55 Y100.17 F6000
G1 E57.729 F1800
G1 X68.55 Y100.17 E57.729 F3600
G1 E54.729 F1800
;LAYER:23
( Nozzle 0 )
G1 Z4.80 F300
G0 X131.84 Y100.52 F6000
G1 E57.729 F1800
G1 X129.95 Y100.52 E57.999 F3600
G1 X129.95 Y99.48 E58.148 F3600
G1 X131.84 Y99.48 E58.418 F3600
G1 X131.84 Y100.52 E58.566 F3600
G1 E55.566 F1800
G0 X70.05 Y100.52 F6000
G1 E58.566 F1800
G1 X70.05 Y99.48 E58.715 F3600
G1 X68.16 Y99.48 E58.985 F3600
G1 X68.16 Y100.52 E59.134 F3600
G1 X70.05 Y100.52 E59.404 F3600
G1 E56.404 F1800
G0 X132.34 Y101.02 F6000
G1 E59.404 F1800
G1 X129.45 Y101.02 E59.816 F3600
G1 X129.45 Y98.98 E60.108 F3600
G1 X132.34 Y98.98 E60.521 F3600
G1 X132.34 Y101.02 E60.812 F3600
G1 E57.812 F1800
G0 X70.55 Y101.02 F6000
G1 E60.812 F1800
G1 X70.55 Y98.98 E61.104 F3600
G1 X67.66 Y98.98 E61.516 F3600
G1 X67.66 Y101.02 E61.808 F3600
G1 X70.55 Y101.02 E62.221 F3600
G1 E59.221 F1800
G0 X68.55 Y99.83 F6000
G1 E62.221 F1800
G1 X68.50 Y99.88 E62.230 F3600
G1 X68.50 Y100.12 E62.265 F3600
G1 X68.55 Y100.17 E62.275 F3600
G1 E59.275 F1800
;LAYER:24
( Nozzle 0 )
G1 Z5.00 F300
G0 X129.86 Y100.52 F6000
G1 E62.275 F1800
G1 X129.86 Y99.48 E62.423 F3600
G1 X131.89 Y99.48 E62.714 F3600
G1 X131.89 Y100.52 E62.863 F3600
G1 X129.86 Y100.52 E63.153 F3600
G1 E60.153 F1800
G0 X68.11 Y100.52 F6000
G1 E63.153 F1800
G1 X70.14 Y100.52 E63.444 F3600
G1 X70.14 Y99.48 E63.592 F3600
G1 X68.11 Y99.48 E63.883 F3600
G1 X68.11 Y100.52 E64.031 F3600
G1 E61.031 F1800
G0 X129.36 Y101.02 F6000
G1 E64.031 F1800
G1 X129.36 Y98.98 E64.323 F3600
G1 X132.39 Y98.98 E64.756 F3600
G1 X132.39 Y101.02 E65.048 F3600
G1 X129.36 Y101.02 E65.481 F3600
G1 E62.481 F1800
G0 X67.61 Y101.02 F6000
G1 E65.481 F1800
G1 X70.64 Y101.02 E65.915 F3600
G1 X70.64 Y98.98 E66.206 F3600
G1 X67.61 Y98.98 E66.639 F3600
G1 X67.61 Y101.02 E66.931 F3600
G1 E63.931 F1800
G0 X68.55 Y100.17 F6000
G1 E66.931 F1800
G1 X68.46 Y100.08 E66.950 F3600
G1 X68.46 Y99.92 E66.972 F3600
G1 X68.55 Y99.83 E66.990 F3600
G1 E63.990 F1800
;LAYER:25
( Nozzle 0 )
G1 Z5.20 F300
G0 X131.94 Y99.48 F6000
G1 E66.990 F1800
G1 X131.94 Y100.52 E67.139 F3600
G1 X129.76 Y100.52 E67.450 F3600
G1 X129.76 Y99.48 E67.599 F3600
G1 X131.94 Y99.48 E67.910 F3600
G1 E64.910 F1800
G0 X70.24 Y99.48 F6000
G1 E67.910 F1800
G1 X68.06 Y99.48 E68.221 F3600
G1 X68.06 Y100.52 E68.370 F3600
G1 X70.24 Y100.52 E68.681 F3600
G1 X70.24 Y99.48 E68.829 F3600
G1 E65.829 F1800
G0 X132.44 Y98.98 F6000
G1 E68.829 F1800
G1 X132.44 Y101.02 E69.121 F3600
G1 X129.26 Y101.02 E69.575 F3600
