;FLAVOR:Marlin
;Layer height: 0.20
M82 ;absolute extrusion mode
G21 ;metric values
G90 ;absolute positioning
M107 ;Fan off
M140 S70 ;set bed temp
M190 S70 ;wait for bed temp
M104 S190 ;set extruder0 temp
M109 S190 ;wait for extruder0 temp
G28 X0 Y0 ;auto-home all axes
G28 Z0 ;auto-home all axes
G1 Z15 F6000 ;raise extruder
G92 E0 ;Zero extruder
M117 Printing...
;LAYER_COUNT:50
;LAYER:0
( Nozzle 0 )
G1 Z0.20 F300
G0 X5.62 Y10.00 F6000
G1 E3.000 F1800
G1 X5.62 Y20.00 E4.429 F3600
G1 E1.429 F1800
G0 X100.70 Y108.72 F6000
G1 E4.429 F1800
G1 X99.76 Y108.75 E4.562 F3600
G1 X98.82 Y108.67 E4.697 F3600
G1 X97.92 Y108.50 E4.829 F3600
G1 X97.03 Y108.23 E4.961 F3600
G1 X96.17 Y107.87 E5.094 F3600
G1 X95.35 Y107.42 E5.228 F3600
G1 X94.59 Y106.88 E5.361 F3600
G1 X93.89 Y106.26 E5.495 F3600
G1 X93.25 Y105.58 E5.628 F3600
G1 X92.70 Y104.83 E5.761 F3600
G1 X92.23 Y104.04 E5.893 F3600
G1 X91.84 Y103.18 E6.026 F3600
G1 X91.55 Y102.29 E6.161 F3600
G1 X91.36 Y101.40 E6.291 F3600
G1 X91.26 Y100.46 E6.426 F3600
G1 X91.26 Y99.54 E6.558 F3600
G1 X91.36 Y98.60 E6.692 F3600
G1 X91.55 Y97.70 E6.825 F3600
G1 X91.85 Y96.81 E6.958 F3600
G1 X92.23 Y95.96 E7.091 F3600
G1 X92.71 Y95.16 E7.225 F3600
G1 X93.25 Y94.42 E7.356 F3600
G1 X93.89 Y93.73 E7.489 F3600
G1 X94.59 Y93.12 E7.623 F3600
G1 X95.35 Y92.58 E7.755 F3600
G1 X96.17 Y92.13 E7.889 F3600
G1 X97.03 Y91.77 E8.022 F3600
G1 X97.92 Y91.50 E8.155 F3600
G1 X98.82 Y91.33 E8.286 F3600
G1 X99.76 Y91.25 E8.421 F3600
G1 X100.70 Y91.28 E8.555 F3600
G1 X101.62 Y91.40 E8.688 F3600
G1 X102.52 Y91.62 E8.821 F3600
G1 X103.40 Y91.94 E8.955 F3600
G1 X104.23 Y92.34 E9.086 F3600
G1 X105.02 Y92.84 E9.218 F3600
G1 X105.76 Y93.42 E9.354 F3600
G1 X106.41 Y94.06 E9.484 F3600
G1 X107.02 Y94.79 E9.619 F3600
G1 X107.53 Y95.56 E9.751 F3600
G1 X107.96 Y96.38 E9.884 F3600
G1 X108.30 Y97.25 E10.017 F3600
G1 X108.55 Y98.16 E10.152 F3600
G1 X108.69 Y99.07 E10.283 F3600
G1 X108.74 Y100.01 E10.418 F3600
G1 X108.69 Y100.93 E10.550 F3600
G1 X108.55 Y101.84 E10.681 F3600
G1 X108.30 Y102.75 E10.816 F3600
G1 X107.96 Y103.62 E10.950 F3600
G1 X107.53 Y104.45 E11.083 F3600
G1 X107.01 Y105.22 E11.215 F3600
G1 X106.42 Y105.94 E11.348 F3600
G1 X105.75 Y106.59 E11.481 F3600
G1 X105.03 Y107.16 E11.613 F3600
G1 X104.22 Y107.66 E11.748 F3600
G1 X103.40 Y108.06 E11.879 F3600
G1 X102.52 Y108.38 E12.013 F3600
G1 X101.62 Y108.60 E12.145 F3600
G1 X100.70 Y108.72 E12.278 F3600
G1 E9.278 F1800
G0 X98.20 Y100.15 F6000
G1 E12.278 F1800
G1 X98.20 Y100.22 E12.287 F3600
G1 X97.45 Y100.22 E12.394 F3600
G1 X98.18 Y100.03 E12.502 F3600
G1 X98.18 Y100.05 E12.504 F3600
G1 X98.19 Y100.08 E12.508 F3600
G1 X98.20 Y100.15 E12.519 F3600
G1 X98.19 Y99.91 E12.553 F3600
G1 X97.45 Y99.78 E12.660 F3600
G1 X98.20 Y99.78 E12.767 F3600
G1 X98.20 Y99.84 E12.776 F3600
G1 X98.19 Y99.91 E12.786 F3600
G1 X98.23 Y99.61 E12.829 F3600
G1 X97.57 Y99.37 E12.930 F3600
G1 X97.52 Y99.36 E12.936 F3600
G1 X97.55 Y99.36 E12.940 F3600
G1 X97.53 Y99.36 E12.943 F3600
G1 X97.58 Y99.37 E12.951 F3600
G1 X98.26 Y99.49 E13.050 F3600
G1 X98.25 Y99.55 E13.059 F3600
G1 X98.23 Y99.61 E13.068 F3600
G1 X98.38 Y99.19 E13.132 F3600
G1 X98.36 Y99.26 E13.143 F3600
G1 X98.32 Y99.31 E13.152 F3600
G1 X97.67 Y98.95 E13.259 F3600
G1 X98.40 Y99.13 E13.366 F3600
G1 X98.39 Y99.15 E13.370 F3600
G1 X98.38 Y99.19 E13.375 F3600
G1 X98.46 Y99.04 E13.398 F3600
G1 X97.91 Y98.60 E13.500 F3600
G1 X97.88 Y98.58 E13.505 F3600
G1 X97.90 Y98.58 E13.508 F3600
G1 X97.88 Y98.57 E13.512 F3600
G1 X97.92 Y98.60 E13.518 F3600
G1 X98.53 Y98.94 E13.619 F3600
G1 X98.51 Y98.99 E13.626 F3600
G1 X98.46 Y99.04 E13.636 F3600
G1 X98.65 Y98.80 E13.680 F3600
G1 X98.20 Y98.28 E13.778 F3600
G1 X98.15 Y98.24 E13.787 F3600
G1 X98.17 Y98.25 E13.791 F3600
G1 X98.15 Y98.23 E13.794 F3600
G1 X98.18 Y98.26 E13.800 F3600
G1 X98.73 Y98.71 E13.901 F3600
G1 X98.69 Y98.76 E13.911 F3600
G1 X98.65 Y98.80 E13.919 F3600
G1 X98.98 Y98.51 E13.982 F3600
G1 X98.93 Y98.55 E13.991 F3600
G1 X98.87 Y98.59 E14.001 F3600
G1 X98.48 Y97.95 E14.108 F3600
G1 X99.01 Y98.48 E14.215 F3600
G1 X99.00 Y98.49 E14.218 F3600
G1 X98.98 Y98.51 E14.221 F3600
G1 X99.12 Y98.42 E14.246 F3600
G1 X98.87 Y97.78 E14.345 F3600
G1 X98.84 Y97.72 E14.353 F3600
G1 X98.86 Y97.75 E14.356 F3600
G1 X98.84 Y97.72 E14.360 F3600
G1 X98.87 Y97.77 E14.368 F3600
G1 X99.23 Y98.36 E14.467 F3600
G1 X99.18 Y98.40 E14.476 F3600
G1 X99.12 Y98.42 E14.485 F3600
G1 X99.54 Y98.25 E14.548 F3600
G1 X99.47 Y98.28 E14.558 F3600
G1 X99.40 Y98.29 E14.568 F3600
G1 X99.25 Y97.56 E14.675 F3600
G1 X99.58 Y98.23 E14.782 F3600
G1 X99.56 Y98.24 E14.785 F3600
G1 X99.54 Y98.25 E14.789 F3600
G1 X99.83 Y98.20 E14.832 F3600
G1 X99.77 Y98.22 E14.841 F3600
G1 X99.70 Y98.22 E14.850 F3600
G1 X99.67 Y97.47 E14.957 F3600
G1 X99.85 Y98.20 E15.065 F3600
G1 X99.84 Y98.20 E15.066 F3600
G1 X99.83 Y98.20 E15.068 F3600
G1 X100.01 Y98.20 E15.093 F3600
G1 X100.10 Y97.48 E15.196 F3600
G1 X100.10 Y97.45 E15.200 F3600
G1 X100.10 Y97.47 E15.203 F3600
G1 X100.10 Y97.45 E15.207 F3600
G1 X100.10 Y97.55 E15.220 F3600
G1 X100.13 Y98.20 E15.314 F3600
G1 X100.07 Y98.20 E15.323 F3600
G1 X100.01 Y98.20 E15.332 F3600
G1 X100.43 Y98.25 E15.393 F3600
G1 X100.37 Y98.24 E15.401 F3600
G1 X100.31 Y98.22 E15.410 F3600
G1 X100.51 Y97.58 E15.506 F3600
G1 X100.53 Y97.51 E15.517 F3600
G1 X100.52 Y97.53 E15.521 F3600
G1 X100.53 Y97.51 E15.524 F3600
G1 X100.52 Y97.54 E15.529 F3600
G1 X100.43 Y98.25 E15.631 F3600
G1 X100.74 Y98.36 E15.678 F3600
G1 X100.67 Y98.33 E15.688 F3600
G1 X100.61 Y98.30 E15.698 F3600
G1 X100.94 Y97.63 E15.805 F3600
G1 X100.80 Y98.37 E15.912 F3600
G1 X100.77 Y98.36 E15.916 F3600
G1 X100.74 Y98.36 E15.921 F3600
G1 X100.99 Y98.50 E15.962 F3600
G1 X100.93 Y98.47 E15.971 F3600
G1 X100.88 Y98.43 E15.980 F3600
G1 X101.33 Y97.83 E16.087 F3600
G1 X101.00 Y98.50 E16.194 F3600
G1 X100.99 Y98.50 E16.195 F3600
G1 X100.99 Y98.50 E16.195 F3600
G1 X101.23 Y98.69 E16.240 F3600
G1 X101.18 Y98.65 E16.250 F3600
G1 X101.14 Y98.61 E16.259 F3600
G1 X101.68 Y98.08 E16.366 F3600
G1 X101.26 Y98.71 E16.473 F3600
G1 X101.25 Y98.70 E16.475 F3600
G1 X101.23 Y98.69 E16.478 F3600
G1 X101.43 Y98.91 E16.520 F3600
G1 X101.39 Y98.87 E16.529 F3600
G1 X101.36 Y98.82 E16.538 F3600
G1 X101.89 Y98.46 E16.630 F3600
G1 X101.97 Y98.39 E16.645 F3600
G1 X101.95 Y98.41 E16.649 F3600
G1 X101.98 Y98.40 E16.653 F3600
G1 X101.94 Y98.42 E16.659 F3600
G1 X101.43 Y98.91 E16.760 F3600
G1 X101.60 Y99.17 E16.804 F3600
G1 X101.56 Y99.12 E16.814 F3600
G1 X101.53 Y99.06 E16.822 F3600
G1 X102.11 Y98.80 E16.913 F3600
G1 X102.22 Y98.75 E16.929 F3600
G1 X102.19 Y98.77 E16.933 F3600
G1 X102.22 Y98.76 E16.937 F3600
G1 X102.19 Y98.77 E16.942 F3600
G1 X101.60 Y99.17 E17.044 F3600
G1 X101.71 Y99.46 E17.088 F3600
G1 X101.69 Y99.40 E17.097 F3600
G1 X101.67 Y99.34 E17.107 F3600
G1 X102.40 Y99.15 E17.214 F3600
G1 X101.73 Y99.48 E17.321 F3600
G1 X101.71 Y99.46 E17.325 F3600
G1 X101.78 Y99.75 E17.368 F3600
G1 X101.76 Y99.70 E17.376 F3600
G1 X101.76 Y99.63 E17.385 F3600
G1 X102.46 Y99.57 E17.486 F3600
G1 X102.50 Y99.56 E17.492 F3600
G1 X102.48 Y99.57 E17.497 F3600
G1 X102.51 Y99.57 E17.501 F3600
G1 X102.42 Y99.59 E17.514 F3600
G1 X101.78 Y99.75 E17.608 F3600
G1 X101.80 Y100.12 E17.661 F3600
G1 X101.80 Y100.08 E17.667 F3600
G1 X101.79 Y100.00 E17.678 F3600
G1 X101.80 Y99.94 E17.688 F3600
G1 X102.54 Y100.00 E17.795 F3600
G1 X101.81 Y100.15 E17.902 F3600
G1 X101.80 Y100.12 E17.906 F3600
G1 X101.76 Y100.41 E17.947 F3600
G1 X101.76 Y100.38 E17.952 F3600
G1 X101.76 Y100.31 E17.962 F3600
G1 X101.78 Y100.24 E17.972 F3600
G1 X102.51 Y100.43 E18.079 F3600
G1 X101.76 Y100.43 E18.186 F3600
G1 X101.76 Y100.41 E18.189 F3600
G1 X101.67 Y100.67 E18.228 F3600
G1 X101.67 Y100.66 E18.229 F3600
G1 X101.69 Y100.59 E18.239 F3600
G1 X101.71 Y100.54 E18.247 F3600
G1 X102.40 Y100.85 E18.354 F3600
G1 X101.67 Y100.67 E18.461 F3600
G1 X101.32 Y101.24 E18.558 F3600
G1 X101.34 Y101.20 E18.565 F3600
G1 X101.39 Y101.13 E18.577 F3600
G1 X101.44 Y101.08 E18.586 F3600
G1 X101.98 Y101.60 E18.693 F3600
G1 X101.31 Y101.27 E18.800 F3600
G1 X101.32 Y101.24 E18.804 F3600
G1 X100.82 Y101.62 E18.893 F3600
G1 X100.86 Y101.58 E18.902 F3600
G1 X100.93 Y101.53 E18.914 F3600
G1 X100.99 Y101.50 E18.923 F3600
G1 X101.33 Y102.17 E19.030 F3600
G1 X100.80 Y101.64 E19.137 F3600
G1 X100.82 Y101.62 E19.142 F3600
G1 X100.55 Y101.73 E19.184 F3600
G1 X100.59 Y101.70 E19.190 F3600
G1 X100.66 Y101.67 E19.201 F3600
G1 X100.72 Y101.65 E19.211 F3600
G1 X100.94 Y102.37 E19.318 F3600
G1 X100.53 Y101.74 E19.426 F3600
G1 X100.55 Y101.73 E19.429 F3600
G1 X100.53 Y102.49 E19.539 F3600
G1 X100.51 Y102.41 E19.550 F3600
G1 X100.31 Y101.77 E19.646 F3600
G1 X100.38 Y101.76 E19.655 F3600
G1 X100.43 Y101.75 E19.663 F3600
G1 X100.53 Y102.46 E19.765 F3600
G1 X100.53 Y102.49 E19.770 F3600
G1 X100.53 Y102.47 E19.774 F3600
G1 X100.53 Y102.49 E19.777 F3600
G1 X100.10 Y102.52 E19.839 F3600
G1 X100.10 Y102.55 E19.842 F3600
G1 X100.10 Y102.52 E19.846 F3600
G1 X100.01 Y101.80 E19.949 F3600
G1 X100.07 Y101.80 E19.958 F3600
G1 X100.13 Y101.80 E19.967 F3600
G1 X100.11 Y102.45 E20.060 F3600
G1 X100.11 Y102.55 E20.074 F3600
G1 X100.10 Y102.52 E20.077 F3600
G1 X99.83 Y101.80 E20.188 F3600
G1 X99.76 Y101.78 E20.198 F3600
G1 X99.70 Y101.78 E20.207 F3600
G1 X99.67 Y101.78 E20.211 F3600
G1 X99.67 Y102.53 E20.318 F3600
G1 X99.83 Y101.80 E20.425 F3600
G1 X99.18 Y101.60 E20.522 F3600
G1 X99.11 Y101.57 E20.533 F3600
G1 X99.06 Y101.56 E20.541 F3600
G1 X99.03 Y101.55 E20.545 F3600
G1 X98.84 Y102.28 E20.652 F3600
G1 X99.24 Y101.64 E20.759 F3600
G1 X99.18 Y101.60 E20.769 F3600
G1 X98.92 Y101.45 E20.812 F3600
G1 X98.86 Y101.41 E20.823 F3600
G1 X98.83 Y101.39 E20.828 F3600
G1 X98.81 Y101.38 E20.831 F3600
G1 X98.48 Y102.05 E20.938 F3600
G1 X98.97 Y101.49 E21.045 F3600
G1 X98.92 Y101.45 E21.054 F3600
G1 X98.16 Y101.77 E21.173 F3600
G1 X98.18 Y101.74 E21.179 F3600
G1 X98.73 Y101.29 E21.280 F3600
G1 X98.69 Y101.24 E21.290 F3600
G1 X98.65 Y101.20 E21.298 F3600
G1 X98.20 Y101.72 E21.396 F3600
G1 X98.15 Y101.76 E21.405 F3600
G1 X98.17 Y101.75 E21.409 F3600
G1 X98.16 Y101.77 E21.412 F3600
G1 X97.88 Y101.43 E21.474 F3600
G1 X97.91 Y101.41 E21.480 F3600
G1 X98.53 Y101.06 E21.581 F3600
G1 X98.50 Y101.01 E21.590 F3600
G1 X98.47 Y100.96 E21.599 F3600
G1 X97.99 Y101.34 E21.686 F3600
G1 X97.88 Y101.43 E21.706 F3600
G1 X97.91 Y101.41 E21.710 F3600
G1 X97.88 Y101.43 E21.714 F3600
G1 X97.67 Y101.05 E21.776 F3600
G1 X97.70 Y101.04 E21.781 F3600
G1 X98.38 Y100.80 E21.883 F3600
G1 X98.36 Y100.74 E21.892 F3600
G1 X98.33 Y100.69 E21.901 F3600
G1 X97.75 Y101.01 E21.995 F3600
G1 X97.67 Y101.05 E22.008 F3600
G1 X97.69 Y101.04 E22.012 F3600
G1 X97.67 Y101.05 E22.016 F3600
G1 X97.53 Y100.65 E22.077 F3600
G1 X97.58 Y100.63 E22.085 F3600
G1 X98.26 Y100.52 E22.184 F3600
G1 X98.25 Y100.45 E22.193 F3600
G1 X98.23 Y100.40 E22.202 F3600
G1 X97.57 Y100.63 E22.303 F3600
G1 X97.53 Y100.64 E22.309 F3600
G1 X97.55 Y100.64 E22.313 F3600
G1 X97.53 Y100.65 E22.316 F3600
G1 E19.316 F1800
G0 X99.26 Y102.41 F6000
G1 E22.316 F1800
G1 X99.53 Y101.74 E22.419 F3600
G1 X99.47 Y101.72 E22.428 F3600
G1 X99.43 Y101.71 E22.433 F3600
G1 X99.43 Y101.71 E22.434 F3600
G1 X99.41 Y101.71 E22.437 F3600
G1 X99.28 Y102.32 E22.526 F3600
G1 X99.25 Y102.44 E22.544 F3600
G1 X99.25 Y102.42 E22.547 F3600
G1 X99.25 Y102.44 E22.551 F3600
G1 X99.26 Y102.41 E22.555 F3600
G1 E19.555 F1800
G0 X102.22 Y101.24 F6000
G1 E22.555 F1800
G1 X102.12 Y101.19 E22.572 F3600
G1 X101.54 Y100.93 E22.662 F3600
G1 X101.56 Y100.88 E22.670 F3600
G1 X101.60 Y100.82 E22.680 F3600
G1 X102.19 Y101.22 E22.782 F3600
G1 X102.22 Y101.24 E22.787 F3600
G1 X102.20 Y101.23 E22.791 F3600
G1 X102.22 Y101.24 E22.795 F3600
G1 X101.68 Y101.91 E22.918 F3600
G1 X101.53 Y101.76 E22.949 F3600
G1 X101.14 Y101.39 E23.025 F3600
G1 X101.18 Y101.35 E23.033 F3600
G1 X101.23 Y101.31 E23.043 F3600
G1 X101.66 Y101.89 E23.146 F3600
G1 X101.68 Y101.91 E23.150 F3600
G1 X101.66 Y101.89 E23.153 F3600
G1 X101.68 Y101.91 E23.157 F3600
G1 E20.157 F1800
G0 X109.03 Y101.95 F6000
G1 E23.157 F1800
G1 X108.78 Y102.90 E23.297 F3600
G1 X108.41 Y103.83 E23.439 F3600
G1 X107.96 Y104.70 E23.580 F3600
G1 X107.96 Y104.70 E23.580 F3600
G1 X107.42 Y105.52 E23.720 F3600
G1 X106.79 Y106.27 E23.860 F3600
G1 X106.79 Y106.28 E23.861 F3600
G1 X106.08 Y106.96 E24.001 F3600
G1 X105.31 Y107.57 E24.141 F3600
G1 X104.47 Y108.09 E24.282 F3600
G1 X103.59 Y108.52 E24.422 F3600
G1 X102.67 Y108.85 E24.563 F3600
G1 X101.71 Y109.09 E24.703 F3600
G1 X100.73 Y109.22 E24.844 F3600
G1 X100.73 Y109.22 E24.844 F3600
G1 X99.75 Y109.25 E24.985 F3600
G1 X98.76 Y109.17 E25.127 F3600
G1 X97.79 Y108.98 E25.267 F3600
G1 X96.86 Y108.70 E25.407 F3600
G1 X95.95 Y108.32 E25.548 F3600
G1 X95.09 Y107.84 E25.688 F3600
G1 X94.28 Y107.28 E25.829 F3600
G1 X93.54 Y106.63 E25.970 F3600
G1 X92.87 Y105.90 E26.111 F3600
G1 X92.28 Y105.11 E26.252 F3600
G1 X92.28 Y105.11 E26.252 F3600
G1 X91.79 Y104.27 E26.391 F3600
G1 X91.38 Y103.36 E26.533 F3600
G1 X91.07 Y102.43 E26.674 F3600
G1 X91.06 Y102.42 E26.675 F3600
G1 X90.86 Y101.48 E26.813 F3600
G1 X90.76 Y100.49 E26.955 F3600
G1 X90.76 Y99.51 E27.095 F3600
G1 X90.86 Y98.52 E27.236 F3600
G1 X90.86 Y98.52 E27.237 F3600
G1 X91.07 Y97.56 E27.377 F3600
G1 X91.07 Y97.56 E27.377 F3600
G1 X91.38 Y96.63 E27.518 F3600
G1 X91.79 Y95.73 E27.658 F3600
G1 X91.79 Y95.73 E27.659 F3600
G1 X92.29 Y94.88 E27.799 F3600
G1 X92.87 Y94.10 E27.939 F3600
G1 X93.54 Y93.37 E28.080 F3600
G1 X94.28 Y92.72 E28.220 F3600
G1 X95.09 Y92.16 E28.362 F3600
G1 X95.95 Y91.68 E28.502 F3600
G1 X95.95 Y91.68 E28.502 F3600
G1 X96.86 Y91.30 E28.643 F3600
G1 X96.86 Y91.30 E28.643 F3600
G1 X97.79 Y91.02 E28.782 F3600
G1 X98.76 Y90.83 E28.923 F3600
G1 X99.75 Y90.75 E29.064 F3600
G1 X100.73 Y90.78 E29.205 F3600
G1 X101.71 Y90.91 E29.346 F3600
G1 X102.66 Y91.14 E29.486 F3600
G1 X103.59 Y91.48 E29.628 F3600
G1 X104.47 Y91.91 E29.768 F3600
G1 X105.30 Y92.43 E29.907 F3600
G1 X106.09 Y93.04 E30.050 F3600
G1 X106.78 Y93.71 E30.187 F3600
G1 X106.78 Y93.72 E30.188 F3600
G1 X107.42 Y94.49 E30.331 F3600
G1 X107.96 Y95.30 E30.471 F3600
G1 X108.42 Y96.18 E30.612 F3600
G1 X108.78 Y97.10 E30.753 F3600
G1 X109.03 Y98.04 E30.893 F3600
G1 X109.19 Y99.01 E31.033 F3600
G1 X109.24 Y100.00 E31.174 F3600
G1 X109.19 Y100.99 E31.315 F3600
G1 X109.03 Y101.95 E31.455 F3600
G1 E28.455 F1800
G0 X101.16 Y101.98 F6000
G1 E31.455 F1800
G1 X101.18 Y101.97 E31.458 F3600
G1 X101.19 Y101.96 E31.461 F3600
G1 X101.22 Y101.95 E31.465 F3600
G1 X101.33 Y102.17 E31.501 F3600
G1 X101.15 Y101.99 E31.536 F3600
G1 X101.16 Y101.98 E31.538 F3600
G1 X100.81 Y102.15 E31.593 F3600
G1 X100.83 Y102.14 E31.596 F3600
G1 X100.85 Y102.13 E31.599 F3600
G1 X100.87 Y102.13 E31.602 F3600
G1 X100.94 Y102.37 E31.638 F3600
G1 X100.81 Y102.16 E31.674 F3600
G1 X100.81 Y102.15 E31.675 F3600
G1 X100.53 Y102.49 E31.738 F3600
G1 X100.53 Y102.47 E31.742 F3600
G1 X100.53 Y102.49 E31.745 F3600
G1 X100.51 Y102.41 E31.758 F3600
G1 X100.46 Y102.25 E31.781 F3600
G1 X100.47 Y102.25 E31.782 F3600
G1 X100.47 Y102.25 E31.782 F3600
G1 X100.47 Y102.25 E31.783 F3600
G1 X100.48 Y102.25 E31.784 F3600
G1 X100.50 Y102.24 E31.786 F3600
G1 X100.53 Y102.46 E31.817 F3600
G1 X100.53 Y102.49 E31.822 F3600
G1 X100.10 Y102.52 E31.884 F3600
G1 X100.10 Y102.55 E31.887 F3600
G1 X100.10 Y102.52 E31.892 F3600
G1 X100.07 Y102.30 E31.923 F3600
G1 X100.09 Y102.30 E31.926 F3600
G1 X100.11 Y102.30 E31.929 F3600
G1 X100.11 Y102.45 E31.950 F3600
G1 X100.11 Y102.55 E31.964 F3600
G1 X100.10 Y102.52 E31.968 F3600
G1 X99.72 Y102.28 E32.032 F3600
G1 X99.67 Y102.53 E32.067 F3600
G1 X99.67 Y102.28 E32.103 F3600
G1 X99.68 Y102.28 E32.105 F3600
G1 X99.70 Y102.28 E32.107 F3600
G1 X99.72 Y102.28 E32.111 F3600
G1 X99.25 Y102.44 E32.182 F3600
G1 X99.25 Y102.42 E32.185 F3600
G1 X99.25 Y102.44 E32.189 F3600
G1 X99.28 Y102.31 E32.207 F3600
G1 X99.30 Y102.19 E32.224 F3600
G1 X99.31 Y102.20 E32.225 F3600
G1 X99.31 Y102.19 E32.225 F3600
G1 X99.31 Y102.20 E32.226 F3600
G1 X99.31 Y102.20 E32.226 F3600
G1 X99.32 Y102.20 E32.227 F3600
G1 X99.34 Y102.21 E32.230 F3600
G1 X99.26 Y102.41 E32.261 F3600
G1 X99.25 Y102.44 E32.266 F3600
G1 X98.96 Y102.05 E32.335 F3600
G1 X98.98 Y102.06 E32.338 F3600
G1 X98.84 Y102.28 E32.374 F3600
