;FLAVOR:Marlin
;Layer height: 0.20
M82 ;absolute extrusion mode
G21 ;metric values
G90 ;absolute positioning
M107 ;Fan off
M140 S70 ;set bed temp
M190 S70 ;wait for bed temp
M104 S190 ;set extruder0 temp
M109 S190 ;wait for extruder0 temp
G28 X0 Y0 ;auto-home all axes
G28 Z0 ;auto-home all axes
G1 Z15 F6000 ;raise extruder
G92 E0 ;Zero extruder
M117 Printing...
;LAYER_COUNT:50
;LAYER:0
( Nozzle 0 )
G1 Z0.20 F300
G0 X5.62 Y10.00 F6000
G1 E3.000 F1800
G1 X5.62 Y20.00 E4.429 F3600
G1 E1.429 F1800
G0 X106.42 Y105.94 F6000
G1 E4.429 F1800
G1 X105.75 Y106.59 E4.562 F3600
G1 X105.03 Y107.16 E4.694 F3600
G1 X104.22 Y107.66 E4.829 F3600
G1 X103.40 Y108.06 E4.960 F3600
G1 X102.52 Y108.38 E5.093 F3600
G1 X101.62 Y108.60 E5.226 F3600
G1 X100.70 Y108.72 E5.359 F3600
G1 X99.76 Y108.75 E5.492 F3600
G1 X98.82 Y108.67 E5.627 F3600
G1 X97.92 Y108.50 E5.759 F3600
G1 X97.03 Y108.23 E5.891 F3600
G1 X96.17 Y107.87 E6.024 F3600
G1 X95.35 Y107.42 E6.158 F3600
G1 X94.59 Y106.88 E6.291 F3600
G1 X93.89 Y106.26 E6.425 F3600
G1 X93.25 Y105.58 E6.558 F3600
G1 X92.70 Y104.83 E6.691 F3600
G1 X92.23 Y104.04 E6.823 F3600
G1 X91.84 Y103.18 E6.956 F3600
G1 X91.55 Y102.29 E7.091 F3600
G1 X91.36 Y101.40 E7.221 F3600
G1 X91.26 Y100.46 E7.356 F3600
G1 X91.26 Y99.54 E7.488 F3600
G1 X91.36 Y98.60 E7.622 F3600
G1 X91.55 Y97.70 E7.755 F3600
G1 X91.85 Y96.81 E7.888 F3600
G1 X92.23 Y95.96 E8.021 F3600
G1 X92.71 Y95.16 E8.155 F3600
G1 X93.25 Y94.42 E8.286 F3600
G1 X93.89 Y93.73 E8.419 F3600
G1 X94.59 Y93.12 E8.553 F3600
G1 X95.35 Y92.58 E8.685 F3600
G1 X96.17 Y92.13 E8.819 F3600
G1 X97.03 Y91.77 E8.952 F3600
G1 X97.92 Y91.50 E9.085 F3600
G1 X98.82 Y91.33 E9.216 F3600
G1 X99.76 Y91.25 E9.351 F3600
G1 X100.70 Y91.28 E9.485 F3600
G1 X101.62 Y91.40 E9.618 F3600
G1 X102.52 Y91.62 E9.751 F3600
G1 X103.40 Y91.94 E9.885 F3600
G1 X104.23 Y92.34 E10.016 F3600
G1 X105.02 Y92.84 E10.148 F3600
G1 X105.76 Y93.42 E10.284 F3600
G1 X106.41 Y94.06 E10.414 F3600
G1 X107.02 Y94.79 E10.549 F3600
G1 X107.53 Y95.56 E10.681 F3600
G1 X107.96 Y96.38 E10.814 F3600
G1 X108.30 Y97.25 E10.947 F3600
G1 X108.55 Y98.16 E11.082 F3600
G1 X108.69 Y99.07 E11.213 F3600
G1 X108.74 Y100.01 E11.348 F3600
G1 X108.69 Y100.93 E11.480 F3600
G1 X108.55 Y101.84 E11.611 F3600
G1 X108.30 Y102.75 E11.746 F3600
G1 X107.96 Y103.62 E11.880 F3600
G1 X107.53 Y104.45 E12.013 F3600
G1 X107.01 Y105.22 E12.145 F3600
G1 X106.42 Y105.94 E12.278 F3600
G1 E9.278 F1800
G0 X100.10 Y97.48 F6000
G1 E12.278 F1800
G1 X100.10 Y97.45 E12.282 F3600
G1 X100.10 Y97.47 E12.286 F3600
G1 X100.10 Y97.45 E12.289 F3600
G1 X100.10 Y97.55 E12.302 F3600
G1 X100.13 Y98.20 E12.396 F3600
G1 X100.07 Y98.20 E12.405 F3600
G1 X100.01 Y98.20 E12.414 F3600
G1 X100.10 Y97.48 E12.516 F3600
G1 X98.87 Y97.78 E12.697 F3600
G1 X98.84 Y97.72 E12.705 F3600
G1 X98.86 Y97.75 E12.709 F3600
G1 X98.84 Y97.72 E12.713 F3600
G1 X98.87 Y97.77 E12.720 F3600
G1 X99.23 Y98.36 E12.820 F3600
G1 X99.18 Y98.40 E12.829 F3600
G1 X99.12 Y98.42 E12.837 F3600
G1 X98.87 Y97.78 E12.936 F3600
G1 X98.98 Y98.51 E13.042 F3600
G1 X98.93 Y98.55 E13.052 F3600
G1 X98.87 Y98.59 E13.062 F3600
G1 X98.48 Y97.95 E13.169 F3600
G1 X99.01 Y98.48 E13.276 F3600
G1 X99.00 Y98.49 E13.278 F3600
G1 X98.98 Y98.51 E13.282 F3600
G1 X99.54 Y98.25 E13.369 F3600
G1 X99.47 Y98.28 E13.380 F3600
G1 X99.40 Y98.29 E13.389 F3600
G1 X99.25 Y97.56 E13.496 F3600
G1 X99.58 Y98.23 E13.603 F3600
G1 X99.56 Y98.24 E13.606 F3600
G1 X99.54 Y98.25 E13.610 F3600
G1 X99.83 Y98.20 E13.653 F3600
G1 X99.77 Y98.22 E13.662 F3600
G1 X99.70 Y98.22 E13.671 F3600
G1 X99.67 Y97.47 E13.778 F3600
G1 X99.85 Y98.20 E13.886 F3600
G1 X99.84 Y98.20 E13.887 F3600
G1 X99.83 Y98.20 E13.889 F3600
G1 X100.37 Y98.24 E13.966 F3600
G1 X100.31 Y98.22 E13.975 F3600
G1 X100.51 Y97.58 E14.071 F3600
G1 X100.53 Y97.51 E14.083 F3600
G1 X100.52 Y97.53 E14.086 F3600
G1 X100.53 Y97.51 E14.089 F3600
G1 X100.52 Y97.54 E14.094 F3600
G1 X100.43 Y98.25 E14.197 F3600
G1 X100.37 Y98.24 E14.205 F3600
G1 X100.74 Y98.36 E14.260 F3600
G1 X100.67 Y98.33 E14.270 F3600
G1 X100.61 Y98.30 E14.280 F3600
G1 X100.94 Y97.63 E14.388 F3600
G1 X100.80 Y98.37 E14.495 F3600
G1 X100.77 Y98.36 E14.498 F3600
G1 X100.74 Y98.36 E14.503 F3600
G1 X100.99 Y98.50 E14.544 F3600
G1 X100.93 Y98.47 E14.553 F3600
G1 X100.88 Y98.43 E14.562 F3600
G1 X101.33 Y97.83 E14.669 F3600
G1 X101.00 Y98.50 E14.776 F3600
G1 X100.99 Y98.50 E14.777 F3600
G1 X100.99 Y98.50 E14.777 F3600
G1 X101.23 Y98.69 E14.822 F3600
G1 X101.18 Y98.65 E14.832 F3600
G1 X101.14 Y98.61 E14.841 F3600
G1 X101.68 Y98.08 E14.948 F3600
G1 X101.26 Y98.71 E15.055 F3600
G1 X101.25 Y98.70 E15.057 F3600
G1 X101.23 Y98.69 E15.060 F3600
G1 X101.39 Y98.87 E15.094 F3600
G1 X101.36 Y98.82 E15.103 F3600
G1 X101.89 Y98.46 E15.195 F3600
G1 X101.97 Y98.39 E15.210 F3600
G1 X101.95 Y98.41 E15.214 F3600
G1 X101.98 Y98.40 E15.218 F3600
G1 X101.94 Y98.42 E15.224 F3600
G1 X101.43 Y98.91 E15.325 F3600
G1 X101.39 Y98.87 E15.334 F3600
G1 X101.56 Y99.12 E15.377 F3600
G1 X101.53 Y99.06 E15.385 F3600
G1 X102.11 Y98.80 E15.476 F3600
G1 X102.22 Y98.75 E15.493 F3600
G1 X102.19 Y98.77 E15.496 F3600
G1 X102.22 Y98.76 E15.500 F3600
G1 X102.19 Y98.77 E15.505 F3600
G1 X101.60 Y99.17 E15.607 F3600
G1 X101.56 Y99.12 E15.617 F3600
G1 X101.69 Y99.40 E15.661 F3600
G1 X101.67 Y99.34 E15.671 F3600
G1 X102.40 Y99.15 E15.778 F3600
G1 X101.73 Y99.48 E15.885 F3600
G1 X101.71 Y99.46 E15.889 F3600
G1 X101.69 Y99.40 E15.898 F3600
G1 X101.76 Y99.70 E15.941 F3600
G1 X101.76 Y99.63 E15.951 F3600
G1 X102.46 Y99.57 E16.051 F3600
G1 X102.50 Y99.56 E16.058 F3600
G1 X102.48 Y99.57 E16.062 F3600
G1 X102.51 Y99.57 E16.066 F3600
G1 X102.42 Y99.59 E16.079 F3600
G1 X101.78 Y99.75 E16.173 F3600
G1 X101.76 Y99.70 E16.182 F3600
G1 X101.80 Y100.12 E16.243 F3600
G1 X101.80 Y100.08 E16.249 F3600
G1 X101.79 Y100.00 E16.259 F3600
G1 X101.80 Y99.94 E16.269 F3600
G1 X102.54 Y100.00 E16.376 F3600
G1 X101.81 Y100.15 E16.483 F3600
G1 X101.80 Y100.12 E16.487 F3600
G1 X101.76 Y100.41 E16.529 F3600
G1 X101.76 Y100.38 E16.534 F3600
G1 X101.76 Y100.31 E16.544 F3600
G1 X101.78 Y100.24 E16.553 F3600
G1 X102.51 Y100.43 E16.661 F3600
G1 X101.76 Y100.43 E16.768 F3600
G1 X101.76 Y100.41 E16.771 F3600
G1 X101.67 Y100.66 E16.808 F3600
G1 X101.69 Y100.59 E16.818 F3600
G1 X101.71 Y100.54 E16.826 F3600
G1 X102.40 Y100.85 E16.933 F3600
G1 X101.67 Y100.67 E17.040 F3600
G1 X101.67 Y100.66 E17.042 F3600
G1 X102.12 Y101.19 E17.141 F3600
G1 X101.54 Y100.93 E17.232 F3600
G1 X101.56 Y100.88 E17.240 F3600
G1 X101.60 Y100.82 E17.249 F3600
G1 X102.19 Y101.22 E17.352 F3600
G1 X102.22 Y101.24 E17.356 F3600
G1 X102.20 Y101.23 E17.360 F3600
G1 X102.22 Y101.24 E17.364 F3600
G1 X102.12 Y101.19 E17.380 F3600
G1 X101.32 Y101.24 E17.494 F3600
G1 X101.31 Y101.27 E17.499 F3600
G1 X101.98 Y101.60 E17.606 F3600
G1 X101.44 Y101.08 E17.713 F3600
G1 X101.39 Y101.13 E17.722 F3600
G1 X101.34 Y101.20 E17.734 F3600
G1 X101.32 Y101.24 E17.741 F3600
G1 X101.53 Y101.76 E17.821 F3600
G1 X101.68 Y101.91 E17.852 F3600
G1 X101.66 Y101.89 E17.856 F3600
G1 X101.68 Y101.91 E17.859 F3600
G1 X101.66 Y101.89 E17.863 F3600
G1 X101.23 Y101.31 E17.966 F3600
G1 X101.18 Y101.35 E17.976 F3600
G1 X101.14 Y101.39 E17.984 F3600
G1 X101.53 Y101.76 E18.060 F3600
G1 X100.82 Y101.62 E18.163 F3600
G1 X100.80 Y101.64 E18.167 F3600
G1 X101.33 Y102.17 E18.274 F3600
G1 X100.99 Y101.50 E18.382 F3600
G1 X100.93 Y101.53 E18.391 F3600
G1 X100.86 Y101.58 E18.403 F3600
G1 X100.82 Y101.62 E18.411 F3600
G1 X100.55 Y101.73 E18.453 F3600
G1 X100.53 Y101.74 E18.457 F3600
G1 X100.94 Y102.37 E18.564 F3600
G1 X100.72 Y101.65 E18.671 F3600
G1 X100.66 Y101.67 E18.681 F3600
G1 X100.59 Y101.70 E18.692 F3600
G1 X100.55 Y101.73 E18.699 F3600
G1 X100.51 Y102.41 E18.797 F3600
G1 X100.53 Y102.49 E18.808 F3600
G1 X100.53 Y102.47 E18.812 F3600
G1 X100.53 Y102.49 E18.815 F3600
G1 X100.53 Y102.46 E18.820 F3600
G1 X100.43 Y101.75 E18.922 F3600
G1 X100.38 Y101.76 E18.931 F3600
G1 X100.31 Y101.77 E18.940 F3600
G1 X100.51 Y102.41 E19.035 F3600
G1 X100.10 Y102.55 E19.097 F3600
G1 X100.10 Y102.52 E19.100 F3600
G1 X100.11 Y102.55 E19.104 F3600
G1 X100.11 Y102.45 E19.117 F3600
G1 X100.13 Y101.80 E19.211 F3600
G1 X100.07 Y101.80 E19.220 F3600
G1 X100.01 Y101.80 E19.229 F3600
G1 X100.10 Y102.52 E19.331 F3600
G1 X100.10 Y102.55 E19.336 F3600
G1 X99.67 Y102.53 E19.397 F3600
G1 X99.83 Y101.80 E19.505 F3600
G1 X99.76 Y101.78 E19.514 F3600
G1 X99.70 Y101.78 E19.523 F3600
G1 X99.67 Y101.78 E19.527 F3600
G1 X99.67 Y102.53 E19.635 F3600
G1 X99.25 Y102.44 E19.696 F3600
G1 X99.26 Y102.41 E19.700 F3600
G1 X99.53 Y101.74 E19.803 F3600
G1 X99.47 Y101.72 E19.812 F3600
G1 X99.43 Y101.71 E19.817 F3600
G1 X99.43 Y101.71 E19.818 F3600
G1 X99.41 Y101.71 E19.821 F3600
G1 X99.28 Y102.32 E19.910 F3600
G1 X99.25 Y102.44 E19.928 F3600
G1 X99.25 Y102.42 E19.931 F3600
G1 X99.25 Y102.44 E19.935 F3600
G1 X99.18 Y101.60 E20.054 F3600
G1 X99.11 Y101.57 E20.066 F3600
G1 X99.06 Y101.56 E20.074 F3600
G1 X99.03 Y101.55 E20.078 F3600
G1 X98.84 Y102.28 E20.185 F3600
G1 X99.24 Y101.64 E20.292 F3600
G1 X99.18 Y101.60 E20.302 F3600
G1 X98.92 Y101.45 E20.345 F3600
G1 X98.86 Y101.41 E20.356 F3600
G1 X98.83 Y101.39 E20.361 F3600
G1 X98.81 Y101.38 E20.364 F3600
G1 X98.48 Y102.05 E20.471 F3600
G1 X98.97 Y101.49 E20.578 F3600
G1 X98.92 Y101.45 E20.587 F3600
G1 X98.17 Y101.75 E20.703 F3600
G1 X98.16 Y101.77 E20.707 F3600
G1 X98.18 Y101.74 E20.712 F3600
G1 X98.73 Y101.29 E20.814 F3600
G1 X98.69 Y101.24 E20.824 F3600
G1 X98.65 Y101.20 E20.831 F3600
G1 X98.20 Y101.72 E20.929 F3600
G1 X98.15 Y101.76 E20.938 F3600
G1 X98.17 Y101.75 E20.942 F3600
G1 X97.91 Y101.41 E21.003 F3600
G1 X97.88 Y101.43 E21.007 F3600
G1 X97.91 Y101.41 E21.013 F3600
G1 X98.53 Y101.06 E21.115 F3600
G1 X98.50 Y101.01 E21.123 F3600
G1 X98.47 Y100.96 E21.132 F3600
G1 X97.99 Y101.34 E21.219 F3600
G1 X97.88 Y101.43 E21.239 F3600
G1 X97.91 Y101.41 E21.243 F3600
G1 X97.69 Y101.04 E21.304 F3600
G1 X97.67 Y101.05 E21.308 F3600
G1 X97.70 Y101.04 E21.313 F3600
G1 X98.38 Y100.80 E21.415 F3600
G1 X98.36 Y100.74 E21.424 F3600
G1 X98.33 Y100.69 E21.433 F3600
G1 X97.75 Y101.01 E21.527 F3600
G1 X97.67 Y101.05 E21.540 F3600
G1 X97.69 Y101.04 E21.544 F3600
G1 X97.55 Y100.64 E21.605 F3600
G1 X97.53 Y100.65 E21.608 F3600
G1 X97.58 Y100.63 E21.616 F3600
G1 X98.26 Y100.52 E21.716 F3600
G1 X98.25 Y100.45 E21.725 F3600
G1 X98.23 Y100.40 E21.733 F3600
G1 X97.57 Y100.63 E21.834 F3600
G1 X97.53 Y100.64 E21.840 F3600
G1 X97.55 Y100.64 E21.844 F3600
G1 X98.20 Y100.15 E21.960 F3600
G1 X98.19 Y100.08 E21.971 F3600
G1 X98.18 Y100.05 E21.975 F3600
G1 X98.18 Y100.03 E21.977 F3600
G1 X97.45 Y100.22 E22.084 F3600
G1 X98.20 Y100.22 E22.192 F3600
G1 X98.20 Y100.15 E22.201 F3600
G1 X98.19 Y99.91 E22.236 F3600
G1 X98.20 Y99.84 E22.245 F3600
G1 X98.20 Y99.78 E22.254 F3600
G1 X97.45 Y99.78 E22.361 F3600
G1 X98.19 Y99.91 E22.468 F3600
G1 X98.38 Y99.19 E22.575 F3600
G1 X98.39 Y99.15 E22.580 F3600
G1 X98.40 Y99.13 E22.583 F3600
G1 X97.67 Y98.95 E22.690 F3600
G1 X98.32 Y99.31 E22.797 F3600
G1 X98.36 Y99.26 E22.806 F3600
G1 X98.38 Y99.19 E22.817 F3600
G1 X97.91 Y98.60 E22.925 F3600
G1 X98.46 Y99.04 E23.027 F3600
G1 X98.51 Y98.99 E23.036 F3600
G1 X98.53 Y98.94 E23.044 F3600
G1 X97.92 Y98.60 E23.145 F3600
G1 X97.88 Y98.57 E23.151 F3600
G1 X97.90 Y98.58 E23.154 F3600
G1 X97.88 Y98.58 E23.157 F3600
G1 X97.91 Y98.60 E23.163 F3600
G1 X98.20 Y98.28 E23.223 F3600
G1 X98.65 Y98.80 E23.321 F3600
G1 X98.69 Y98.76 E23.329 F3600
G1 X98.73 Y98.71 E23.339 F3600
G1 X98.18 Y98.26 E23.440 F3600
G1 X98.15 Y98.23 E23.446 F3600
G1 X98.17 Y98.25 E23.449 F3600
G1 X98.15 Y98.24 E23.453 F3600
G1 X98.20 Y98.28 E23.462 F3600
G1 X97.57 Y99.37 E23.642 F3600
G1 X98.23 Y99.61 E23.743 F3600
G1 X98.25 Y99.55 E23.751 F3600
G1 X98.26 Y99.49 E23.760 F3600
G1 X97.58 Y99.37 E23.860 F3600
G1 X97.53 Y99.36 E23.867 F3600
G1 X97.55 Y99.36 E23.871 F3600
G1 X97.52 Y99.36 E23.874 F3600
G1 X97.57 Y99.37 E23.881 F3600
G1 E20.881 F1800
G0 X107.42 Y94.49 F6000
G1 E23.881 F1800
G1 X107.96 Y95.30 E24.020 F3600
G1 X108.42 Y96.18 E24.162 F3600
G1 X108.78 Y97.10 E24.302 F3600
G1 X109.03 Y98.04 E24.442 F3600
G1 X109.19 Y99.01 E24.582 F3600
G1 X109.24 Y100.00 E24.724 F3600
G1 X109.19 Y100.99 E24.865 F3600
G1 X109.03 Y101.95 E25.005 F3600
G1 X108.78 Y102.90 E25.145 F3600
G1 X108.41 Y103.83 E25.287 F3600
G1 X107.96 Y104.70 E25.428 F3600
G1 X107.96 Y104.70 E25.429 F3600
G1 X107.42 Y105.52 E25.568 F3600
G1 X106.79 Y106.27 E25.708 F3600
G1 X106.79 Y106.28 E25.709 F3600
G1 X106.08 Y106.96 E25.850 F3600
G1 X105.31 Y107.57 E25.989 F3600
G1 X104.47 Y108.09 E26.131 F3600
G1 X103.59 Y108.52 E26.271 F3600
G1 X102.67 Y108.85 E26.411 F3600
G1 X101.71 Y109.09 E26.552 F3600
G1 X100.73 Y109.22 E26.693 F3600
G1 X100.73 Y109.22 E26.693 F3600
G1 X99.75 Y109.25 E26.834 F3600
G1 X98.76 Y109.17 E26.975 F3600
G1 X97.79 Y108.98 E27.115 F3600
G1 X96.86 Y108.70 E27.256 F3600
G1 X95.95 Y108.32 E27.397 F3600
G1 X95.09 Y107.84 E27.536 F3600
G1 X94.28 Y107.28 E27.677 F3600
G1 X93.54 Y106.63 E27.818 F3600
G1 X92.87 Y105.90 E27.959 F3600
G1 X92.28 Y105.11 E28.100 F3600
G1 X92.28 Y105.11 E28.100 F3600
G1 X91.79 Y104.27 E28.240 F3600
G1 X91.38 Y103.36 E28.381 F3600
G1 X91.07 Y102.43 E28.522 F3600
G1 X91.06 Y102.42 E28.523 F3600
G1 X90.86 Y101.48 E28.661 F3600
G1 X90.76 Y100.49 E28.803 F3600
G1 X90.76 Y99.51 E28.943 F3600
G1 X90.86 Y98.52 E29.085 F3600
G1 X90.86 Y98.52 E29.085 F3600
G1 X91.07 Y97.56 E29.225 F3600
G1 X91.07 Y97.56 E29.226 F3600
G1 X91.38 Y96.63 E29.366 F3600
G1 X91.79 Y95.73 E29.507 F3600
G1 X91.79 Y95.73 E29.507 F3600
G1 X92.29 Y94.88 E29.647 F3600
G1 X92.87 Y94.10 E29.787 F3600
G1 X93.54 Y93.37 E29.928 F3600
G1 X94.28 Y92.72 E30.069 F3600
G1 X95.09 Y92.16 E30.210 F3600
G1 X95.95 Y91.68 E30.350 F3600
G1 X95.95 Y91.68 E30.351 F3600
G1 X96.86 Y91.30 E30.491 F3600
G1 X96.86 Y91.30 E30.491 F3600
G1 X97.79 Y91.02 E30.630 F3600
G1 X98.76 Y90.83 E30.771 F3600
G1 X99.75 Y90.75 E30.913 F3600
G1 X100.73 Y90.78 E31.054 F3600
G1 X101.71 Y90.91 E31.194 F3600
G1 X102.66 Y91.14 E31.335 F3600
G1 X103.59 Y91.48 E31.476 F3600
G1 X104.47 Y91.91 E31.616 F3600
G1 X105.30 Y92.43 E31.756 F3600
G1 X106.09 Y93.04 E31.898 F3600
G1 X106.78 Y93.71 E32.036 F3600
G1 X106.78 Y93.72 E32.036 F3600
G1 X107.42 Y94.49 E32.179 F3600
G1 E29.179 F1800
G0 X101.16 Y101.98 F6000
G1 E32.179 F1800
G1 X101.18 Y101.97 E32.182 F3600
G1 X101.19 Y101.96 E32.185 F3600
G1 X101.22 Y101.95 E32.189 F3600
G1 X101.33 Y102.17 E32.224 F3600
G1 X101.15 Y101.99 E32.260 F3600
G1 X101.16 Y101.98 E32.262 F3600
G1 X100.81 Y102.15 E32.317 F3600
G1 X100.83 Y102.14 E32.319 F3600
G1 X100.85 Y102.13 E32.323 F3600
G1 X100.87 Y102.13 E32.326 F3600
G1 X100.94 Y102.37 E32.362 F3600
G1 X100.81 Y102.16 E32.397 F3600
G1 X100.81 Y102.15 E32.399 F3600
G1 X100.53 Y102.47 E32.460 F3600
G1 X100.53 Y102.49 E32.464 F3600
G1 X100.51 Y102.41 E32.476 F3600
G1 X100.46 Y102.25 E32.499 F3600
G1 X100.47 Y102.25 E32.501 F3600
G1 X100.47 Y102.25 E32.501 F3600
G1 X100.47 Y102.25 E32.501 F3600
G1 X100.48 Y102.25 E32.502 F3600
G1 X100.50 Y102.24 E32.505 F3600
G1 X100.53 Y102.46 E32.536 F3600
G1 X100.53 Y102.49 E32.541 F3600
G1 X100.53 Y102.47 E32.544 F3600
G1 X100.10 Y102.55 E32.606 F3600
G1 X100.10 Y102.52 E32.610 F3600
G1 X100.07 Y102.30 E32.642 F3600
G1 X100.09 Y102.30 E32.645 F3600
G1 X100.11 Y102.30 E32.647 F3600
G1 X100.11 Y102.45 E32.668 F3600
G1 X100.11 Y102.55 E32.683 F3600
G1 X100.10 Y102.52 E32.686 F3600
G1 X100.10 Y102.55 E32.690 F3600
G1 X99.67 Y102.53 E32.751 F3600
G1 X99.67 Y102.28 E32.787 F3600
G1 X99.68 Y102.28 E32.789 F3600
G1 X99.70 Y102.28 E32.791 F3600
G1 X99.72 Y102.28 E32.795 F3600
G1 X99.67 Y102.53 E32.830 F3600
G1 X99.25 Y102.42 E32.892 F3600
G1 X99.25 Y102.44 E32.895 F3600
G1 X99.28 Y102.31 E32.914 F3600
G1 X99.30 Y102.19 E32.931 F3600
G1 X99.31 Y102.20 E32.931 F3600
G1 X99.31 Y102.19 E32.932 F3600
G1 X99.31 Y102.20 E32.932 F3600
G1 X99.31 Y102.20 E32.932 F3600
G1 X99.32 Y102.20 E32.934 F3600
G1 X99.34 Y102.21 E32.937 F3600
G1 X99.26 Y102.41 E32.968 F3600
G1 X99.25 Y102.44 E32.972 F3600
G1 X99.25 Y102.42 E32.976 F3600
G1 X98.96 Y102.05 E33.043 F3600
G1 X98.98 Y102.06 E33.046 F3600
G1 X98.84 Y102.28 E33.082 F3600
G1 X98.91 Y102.03 E33.118 F3600
