;FLAVOR:Marlin
;Layer height: 0.20
M82 ;absolute extrusion mode
G21 ;metric values
G90 ;absolute positioning
M107 ;Fan off
M140 S70 ;set bed temp
M190 S70 ;wait for bed temp
M104 S190 ;set extruder0 temp
M109 S190 ;wait for extruder0 temp
G28 X0 Y0 ;auto-home all axes
G28 Z0 ;auto-home all axes
G1 Z15 F6000 ;raise extruder
G92 E0 ;Zero extruder
M117 Printing...
;LAYER_COUNT:50
;LAYER:0
( Nozzle 0 )
G1 Z0.20 F300
G0 X5.62 Y10.00 F6000
G1 E3.000 F1800
G1 X5.62 Y20.00 E4.429 F3600
G1 E1.429 F1800
G0 X97.92 Y108.50 F6000
G1 E4.429 F1800
G1 X97.03 Y108.23 E4.561 F3600
G1 X96.17 Y107.87 E4.694 F3600
G1 X95.35 Y107.42 E4.828 F3600
G1 X94.59 Y106.88 E4.961 F3600
G1 X93.89 Y106.26 E5.095 F3600
G1 X93.25 Y105.58 E5.228 F3600
G1 X92.70 Y104.83 E5.361 F3600
G1 X92.23 Y104.04 E5.493 F3600
G1 X91.84 Y103.18 E5.626 F3600
G1 X91.55 Y102.29 E5.761 F3600
G1 X91.36 Y101.40 E5.891 F3600
G1 X91.26 Y100.46 E6.026 F3600
G1 X91.26 Y99.54 E6.158 F3600
G1 X91.36 Y98.60 E6.292 F3600
G1 X91.55 Y97.70 E6.425 F3600
G1 X91.85 Y96.81 E6.558 F3600
G1 X92.23 Y95.96 E6.691 F3600
G1 X92.71 Y95.16 E6.825 F3600
G1 X93.25 Y94.42 E6.956 F3600
G1 X93.89 Y93.73 E7.089 F3600
G1 X94.59 Y93.12 E7.223 F3600
G1 X95.35 Y92.58 E7.355 F3600
G1 X96.17 Y92.13 E7.489 F3600
G1 X97.03 Y91.77 E7.622 F3600
G1 X97.92 Y91.50 E7.755 F3600
G1 X98.82 Y91.33 E7.886 F3600
G1 X99.76 Y91.25 E8.020 F3600
G1 X100.70 Y91.28 E8.155 F3600
G1 X101.62 Y91.40 E8.288 F3600
G1 X102.52 Y91.62 E8.421 F3600
G1 X103.40 Y91.94 E8.554 F3600
G1 X104.23 Y92.34 E8.686 F3600
G1 X105.02 Y92.84 E8.818 F3600
G1 X105.76 Y93.42 E8.954 F3600
G1 X106.41 Y94.06 E9.084 F3600
G1 X107.02 Y94.79 E9.219 F3600
G1 X107.53 Y95.56 E9.351 F3600
G1 X107.96 Y96.38 E9.484 F3600
G1 X108.30 Y97.25 E9.617 F3600
G1 X108.55 Y98.16 E9.752 F3600
G1 X108.69 Y99.07 E9.883 F3600
G1 X108.74 Y100.01 E10.018 F3600
G1 X108.69 Y100.93 E10.150 F3600
G1 X108.55 Y101.84 E10.281 F3600
G1 X108.30 Y102.75 E10.416 F3600
G1 X107.96 Y103.62 E10.550 F3600
G1 X107.53 Y104.45 E10.683 F3600
G1 X107.01 Y105.22 E10.815 F3600
G1 X106.42 Y105.94 E10.948 F3600
G1 X105.75 Y106.59 E11.081 F3600
G1 X105.03 Y107.16 E11.213 F3600
G1 X104.22 Y107.66 E11.348 F3600
G1 X103.40 Y108.06 E11.479 F3600
G1 X102.52 Y108.38 E11.613 F3600
G1 X101.62 Y108.60 E11.745 F3600
G1 X100.70 Y108.72 E11.878 F3600
G1 X99.76 Y108.75 E12.012 F3600
G1 X98.82 Y108.67 E12.146 F3600
G1 X97.92 Y108.50 E12.278 F3600
G1 E9.278 F1800
G0 X101.66 Y101.89 F6000
G1 E12.278 F1800
G1 X101.68 Y101.91 E12.282 F3600
G1 X101.53 Y101.76 E12.312 F3600
G1 X101.14 Y101.39 E12.389 F3600
G1 X101.18 Y101.35 E12.397 F3600
G1 X101.23 Y101.31 E12.406 F3600
G1 X101.66 Y101.89 E12.509 F3600
G1 X101.68 Y101.91 E12.513 F3600
G1 X101.66 Y101.89 E12.517 F3600
G1 X102.20 Y101.23 E12.639 F3600
G1 X102.22 Y101.24 E12.643 F3600
G1 X102.12 Y101.19 E12.659 F3600
G1 X101.54 Y100.93 E12.750 F3600
G1 X101.56 Y100.88 E12.758 F3600
G1 X101.60 Y100.82 E12.768 F3600
G1 X102.19 Y101.22 E12.870 F3600
G1 X102.22 Y101.24 E12.875 F3600
G1 X102.20 Y101.23 E12.878 F3600
G1 X102.42 Y99.59 E13.115 F3600
G1 X101.78 Y99.75 E13.210 F3600
G1 X101.76 Y99.70 E13.218 F3600
G1 X101.76 Y99.63 E13.227 F3600
G1 X102.46 Y99.57 E13.328 F3600
G1 X102.50 Y99.56 E13.334 F3600
G1 X102.48 Y99.57 E13.339 F3600
G1 X102.51 Y99.57 E13.343 F3600
G1 X102.42 Y99.59 E13.356 F3600
G1 X101.71 Y99.46 E13.458 F3600
G1 X101.69 Y99.40 E13.467 F3600
G1 X101.67 Y99.34 E13.476 F3600
G1 X102.40 Y99.15 E13.584 F3600
G1 X101.73 Y99.48 E13.691 F3600
G1 X101.71 Y99.46 E13.694 F3600
G1 X101.81 Y100.15 E13.793 F3600
G1 X101.80 Y100.12 E13.797 F3600
G1 X101.80 Y100.08 E13.803 F3600
G1 X101.79 Y100.00 E13.814 F3600
G1 X101.80 Y99.94 E13.824 F3600
G1 X102.54 Y100.00 E13.931 F3600
G1 X101.81 Y100.15 E14.038 F3600
G1 X101.76 Y100.43 E14.079 F3600
G1 X101.76 Y100.41 E14.082 F3600
G1 X101.76 Y100.38 E14.087 F3600
G1 X101.76 Y100.31 E14.097 F3600
G1 X101.78 Y100.24 E14.107 F3600
G1 X102.51 Y100.43 E14.214 F3600
G1 X101.76 Y100.43 E14.321 F3600
G1 X101.67 Y100.67 E14.357 F3600
G1 X101.67 Y100.66 E14.358 F3600
G1 X101.69 Y100.59 E14.368 F3600
G1 X101.71 Y100.54 E14.376 F3600
G1 X102.40 Y100.85 E14.483 F3600
G1 X101.67 Y100.67 E14.591 F3600
G1 X101.31 Y101.27 E14.691 F3600
G1 X101.32 Y101.24 E14.695 F3600
G1 X101.34 Y101.20 E14.702 F3600
G1 X101.39 Y101.13 E14.714 F3600
G1 X101.44 Y101.08 E14.723 F3600
G1 X101.98 Y101.60 E14.831 F3600
G1 X101.31 Y101.27 E14.938 F3600
G1 X100.80 Y101.64 E15.028 F3600
G1 X100.82 Y101.62 E15.032 F3600
G1 X100.86 Y101.58 E15.040 F3600
G1 X100.93 Y101.53 E15.052 F3600
G1 X100.99 Y101.50 E15.062 F3600
G1 X101.33 Y102.17 E15.169 F3600
G1 X100.80 Y101.64 E15.276 F3600
G1 X100.53 Y101.74 E15.317 F3600
G1 X100.55 Y101.73 E15.321 F3600
G1 X100.59 Y101.70 E15.328 F3600
G1 X100.66 Y101.67 E15.339 F3600
G1 X100.72 Y101.65 E15.349 F3600
G1 X100.94 Y102.37 E15.456 F3600
G1 X100.53 Y101.74 E15.563 F3600
G1 X100.53 Y102.47 E15.667 F3600
G1 X100.53 Y102.49 E15.670 F3600
G1 X100.51 Y102.41 E15.682 F3600
G1 X100.31 Y101.77 E15.777 F3600
G1 X100.38 Y101.76 E15.786 F3600
G1 X100.43 Y101.75 E15.795 F3600
G1 X100.53 Y102.46 E15.897 F3600
G1 X100.53 Y102.49 E15.902 F3600
G1 X100.53 Y102.47 E15.905 F3600
G1 X100.11 Y102.55 E15.967 F3600
G1 X100.10 Y102.52 E15.970 F3600
G1 X100.10 Y102.55 E15.973 F3600
G1 X100.10 Y102.52 E15.978 F3600
G1 X100.01 Y101.80 E16.080 F3600
G1 X100.07 Y101.80 E16.089 F3600
G1 X100.13 Y101.80 E16.098 F3600
G1 X100.11 Y102.45 E16.192 F3600
G1 X100.11 Y102.55 E16.205 F3600
G1 X99.83 Y101.80 E16.320 F3600
G1 X99.76 Y101.78 E16.329 F3600
G1 X99.70 Y101.78 E16.338 F3600
G1 X99.67 Y101.78 E16.342 F3600
G1 X99.67 Y102.53 E16.450 F3600
G1 X99.83 Y101.80 E16.557 F3600
G1 X99.53 Y101.74 E16.600 F3600
G1 X99.47 Y101.72 E16.609 F3600
G1 X99.43 Y101.71 E16.615 F3600
G1 X99.43 Y101.71 E16.615 F3600
G1 X99.41 Y101.71 E16.618 F3600
G1 X99.28 Y102.32 E16.707 F3600
G1 X99.25 Y102.44 E16.725 F3600
G1 X99.25 Y102.42 E16.729 F3600
G1 X99.25 Y102.44 E16.732 F3600
G1 X99.26 Y102.41 E16.736 F3600
G1 X99.53 Y101.74 E16.839 F3600
G1 X99.11 Y101.57 E16.904 F3600
G1 X99.06 Y101.56 E16.911 F3600
G1 X99.03 Y101.55 E16.916 F3600
G1 X98.84 Y102.28 E17.023 F3600
G1 X99.24 Y101.64 E17.130 F3600
G1 X99.18 Y101.60 E17.140 F3600
G1 X99.11 Y101.57 E17.152 F3600
G1 X98.86 Y101.41 E17.194 F3600
G1 X98.83 Y101.39 E17.199 F3600
G1 X98.81 Y101.38 E17.202 F3600
G1 X98.48 Y102.05 E17.309 F3600
G1 X98.97 Y101.49 E17.416 F3600
G1 X98.92 Y101.45 E17.425 F3600
G1 X98.86 Y101.41 E17.436 F3600
G1 X98.18 Y101.74 E17.544 F3600
G1 X98.73 Y101.29 E17.645 F3600
G1 X98.69 Y101.24 E17.655 F3600
G1 X98.65 Y101.20 E17.663 F3600
G1 X98.20 Y101.72 E17.761 F3600
G1 X98.15 Y101.76 E17.770 F3600
G1 X98.17 Y101.75 E17.774 F3600
G1 X98.16 Y101.77 E17.777 F3600
G1 X98.18 Y101.74 E17.783 F3600
G1 X97.91 Y101.41 E17.844 F3600
G1 X98.53 Y101.06 E17.946 F3600
G1 X98.50 Y101.01 E17.954 F3600
G1 X98.47 Y100.96 E17.963 F3600
G1 X97.99 Y101.34 E18.050 F3600
G1 X97.88 Y101.43 E18.070 F3600
G1 X97.91 Y101.41 E18.074 F3600
G1 X97.88 Y101.43 E18.079 F3600
G1 X97.91 Y101.41 E18.084 F3600
G1 X97.70 Y101.04 E18.145 F3600
G1 X98.38 Y100.80 E18.247 F3600
G1 X98.36 Y100.74 E18.256 F3600
G1 X98.33 Y100.69 E18.265 F3600
G1 X97.75 Y101.01 E18.358 F3600
G1 X97.67 Y101.05 E18.372 F3600
G1 X97.69 Y101.04 E18.376 F3600
G1 X97.67 Y101.05 E18.379 F3600
G1 X97.70 Y101.04 E18.384 F3600
G1 X97.58 Y100.63 E18.445 F3600
G1 X98.26 Y100.52 E18.544 F3600
G1 X98.25 Y100.45 E18.553 F3600
G1 X98.23 Y100.40 E18.562 F3600
G1 X97.57 Y100.63 E18.663 F3600
G1 X97.53 Y100.64 E18.669 F3600
G1 X97.55 Y100.64 E18.673 F3600
G1 X97.53 Y100.65 E18.676 F3600
G1 X97.58 Y100.63 E18.684 F3600
G1 X98.19 Y100.08 E18.802 F3600
G1 X98.18 Y100.05 E18.806 F3600
G1 X98.18 Y100.03 E18.808 F3600
G1 X97.45 Y100.22 E18.916 F3600
G1 X98.20 Y100.22 E19.023 F3600
G1 X98.20 Y100.15 E19.032 F3600
G1 X98.19 Y100.08 E19.042 F3600
G1 X98.20 Y99.84 E19.076 F3600
G1 X98.20 Y99.78 E19.085 F3600
G1 X97.45 Y99.78 E19.192 F3600
G1 X98.19 Y99.91 E19.299 F3600
G1 X98.20 Y99.84 E19.308 F3600
G1 X98.25 Y99.55 E19.351 F3600
G1 X98.26 Y99.49 E19.360 F3600
G1 X97.58 Y99.37 E19.460 F3600
G1 X97.53 Y99.36 E19.467 F3600
G1 X97.55 Y99.36 E19.471 F3600
G1 X97.52 Y99.36 E19.474 F3600
G1 X97.57 Y99.37 E19.480 F3600
G1 X98.23 Y99.61 E19.581 F3600
G1 X98.25 Y99.55 E19.590 F3600
G1 X98.39 Y99.15 E19.650 F3600
G1 X98.40 Y99.13 E19.653 F3600
G1 X97.67 Y98.95 E19.760 F3600
G1 X98.32 Y99.31 E19.868 F3600
G1 X98.36 Y99.26 E19.877 F3600
G1 X98.38 Y99.19 E19.888 F3600
G1 X98.39 Y99.15 E19.893 F3600
G1 X98.51 Y98.99 E19.922 F3600
G1 X98.53 Y98.94 E19.929 F3600
G1 X97.92 Y98.60 E20.030 F3600
G1 X97.88 Y98.57 E20.036 F3600
G1 X97.90 Y98.58 E20.040 F3600
G1 X97.88 Y98.58 E20.043 F3600
G1 X97.91 Y98.60 E20.048 F3600
G1 X98.46 Y99.04 E20.150 F3600
G1 X98.51 Y98.99 E20.160 F3600
G1 X98.69 Y98.76 E20.201 F3600
G1 X98.73 Y98.71 E20.211 F3600
G1 X98.18 Y98.26 E20.312 F3600
G1 X98.15 Y98.23 E20.318 F3600
G1 X98.17 Y98.25 E20.321 F3600
G1 X98.15 Y98.24 E20.325 F3600
G1 X98.20 Y98.28 E20.334 F3600
G1 X98.65 Y98.80 E20.432 F3600
G1 X98.69 Y98.76 E20.440 F3600
G1 X99.00 Y98.49 E20.498 F3600
G1 X99.01 Y98.48 E20.501 F3600
G1 X98.48 Y97.95 E20.608 F3600
G1 X98.87 Y98.59 E20.715 F3600
G1 X98.93 Y98.55 E20.725 F3600
G1 X98.98 Y98.51 E20.734 F3600
G1 X99.00 Y98.49 E20.738 F3600
G1 X99.18 Y98.40 E20.767 F3600
G1 X99.23 Y98.36 E20.776 F3600
G1 X98.87 Y97.77 E20.876 F3600
G1 X98.84 Y97.72 E20.883 F3600
G1 X98.86 Y97.75 E20.887 F3600
G1 X98.84 Y97.72 E20.891 F3600
G1 X98.87 Y97.78 E20.899 F3600
G1 X99.12 Y98.42 E20.998 F3600
G1 X99.18 Y98.40 E21.006 F3600
G1 X99.56 Y98.24 E21.066 F3600
G1 X99.58 Y98.23 E21.069 F3600
G1 X99.25 Y97.56 E21.176 F3600
G1 X99.40 Y98.29 E21.283 F3600
G1 X99.47 Y98.28 E21.292 F3600
G1 X99.54 Y98.25 E21.303 F3600
G1 X99.56 Y98.24 E21.307 F3600
G1 X99.84 Y98.20 E21.347 F3600
G1 X99.85 Y98.20 E21.348 F3600
G1 X99.67 Y97.47 E21.456 F3600
G1 X99.70 Y98.22 E21.563 F3600
G1 X99.77 Y98.22 E21.572 F3600
G1 X99.83 Y98.20 E21.581 F3600
G1 X99.84 Y98.20 E21.583 F3600
G1 X100.07 Y98.20 E21.615 F3600
G1 X100.13 Y98.20 E21.624 F3600
G1 X100.10 Y97.55 E21.718 F3600
G1 X100.10 Y97.45 E21.731 F3600
G1 X100.10 Y97.47 E21.735 F3600
G1 X100.10 Y97.45 E21.738 F3600
G1 X100.10 Y97.48 E21.742 F3600
G1 X100.01 Y98.20 E21.845 F3600
G1 X100.07 Y98.20 E21.854 F3600
G1 X100.77 Y98.36 E21.957 F3600
G1 X100.80 Y98.37 E21.961 F3600
G1 X100.94 Y97.63 E22.068 F3600
G1 X100.61 Y98.30 E22.175 F3600
G1 X100.67 Y98.33 E22.185 F3600
G1 X100.74 Y98.36 E22.195 F3600
G1 X100.77 Y98.36 E22.200 F3600
G1 X100.99 Y98.50 E22.237 F3600
G1 X101.00 Y98.50 E22.237 F3600
G1 X101.33 Y97.83 E22.345 F3600
G1 X100.88 Y98.43 E22.452 F3600
G1 X100.93 Y98.47 E22.461 F3600
G1 X100.99 Y98.50 E22.470 F3600
G1 X100.99 Y98.50 E22.470 F3600
G1 X101.25 Y98.70 E22.517 F3600
G1 X101.26 Y98.71 E22.519 F3600
G1 X101.68 Y98.08 E22.626 F3600
G1 X101.14 Y98.61 E22.733 F3600
G1 X101.18 Y98.65 E22.742 F3600
G1 X101.23 Y98.69 E22.752 F3600
G1 X101.25 Y98.70 E22.755 F3600
G1 X101.94 Y98.42 E22.862 F3600
G1 X101.98 Y98.40 E22.868 F3600
G1 X101.95 Y98.41 E22.872 F3600
G1 X101.97 Y98.39 E22.876 F3600
G1 X101.89 Y98.46 E22.891 F3600
G1 X101.36 Y98.82 E22.983 F3600
G1 X101.39 Y98.87 E22.992 F3600
G1 X101.43 Y98.91 E23.001 F3600
G1 X101.94 Y98.42 E23.102 F3600
G1 X102.19 Y98.77 E23.163 F3600
G1 X102.22 Y98.76 E23.168 F3600
G1 X102.19 Y98.77 E23.171 F3600
G1 X102.22 Y98.75 E23.175 F3600
G1 X102.11 Y98.80 E23.192 F3600
G1 X101.53 Y99.06 E23.282 F3600
G1 X101.56 Y99.12 E23.291 F3600
G1 X101.60 Y99.17 E23.300 F3600
G1 X102.19 Y98.77 E23.403 F3600
G1 E20.403 F1800
G0 X100.52 Y97.54 F6000
G1 E23.403 F1800
G1 X100.53 Y97.51 E23.408 F3600
G1 X100.52 Y97.53 E23.411 F3600
G1 X100.53 Y97.51 E23.414 F3600
G1 X100.51 Y97.58 E23.426 F3600
G1 X100.31 Y98.22 E23.522 F3600
G1 X100.37 Y98.24 E23.530 F3600
G1 X100.43 Y98.25 E23.539 F3600
G1 X100.52 Y97.54 E23.641 F3600
G1 E20.641 F1800
G0 X108.41 Y103.83 F6000
G1 E23.641 F1800
G1 X107.96 Y104.70 E23.782 F3600
G1 X107.96 Y104.70 E23.783 F3600
G1 X107.42 Y105.52 E23.922 F3600
G1 X106.79 Y106.27 E24.062 F3600
G1 X106.79 Y106.28 E24.063 F3600
G1 X106.08 Y106.96 E24.204 F3600
G1 X105.31 Y107.57 E24.343 F3600
G1 X104.47 Y108.09 E24.485 F3600
G1 X103.59 Y108.52 E24.625 F3600
G1 X102.67 Y108.85 E24.765 F3600
G1 X101.71 Y109.09 E24.906 F3600
G1 X100.73 Y109.22 E25.047 F3600
G1 X100.73 Y109.22 E25.047 F3600
G1 X99.75 Y109.25 E25.188 F3600
G1 X98.76 Y109.17 E25.330 F3600
G1 X97.79 Y108.98 E25.470 F3600
G1 X96.86 Y108.70 E25.610 F3600
G1 X95.95 Y108.32 E25.751 F3600
G1 X95.09 Y107.84 E25.891 F3600
G1 X94.28 Y107.28 E26.031 F3600
G1 X93.54 Y106.63 E26.172 F3600
G1 X92.87 Y105.90 E26.313 F3600
G1 X92.28 Y105.11 E26.454 F3600
G1 X92.28 Y105.11 E26.454 F3600
G1 X91.79 Y104.27 E26.594 F3600
G1 X91.38 Y103.36 E26.736 F3600
G1 X91.07 Y102.43 E26.877 F3600
G1 X91.06 Y102.42 E26.878 F3600
G1 X90.86 Y101.48 E27.015 F3600
G1 X90.76 Y100.49 E27.158 F3600
G1 X90.76 Y99.51 E27.297 F3600
G1 X90.86 Y98.52 E27.439 F3600
G1 X90.86 Y98.52 E27.439 F3600
G1 X91.07 Y97.56 E27.580 F3600
G1 X91.07 Y97.56 E27.580 F3600
G1 X91.38 Y96.63 E27.720 F3600
G1 X91.79 Y95.73 E27.861 F3600
G1 X91.79 Y95.73 E27.861 F3600
G1 X92.29 Y94.88 E28.002 F3600
G1 X92.87 Y94.10 E28.141 F3600
G1 X93.54 Y93.37 E28.282 F3600
G1 X94.28 Y92.72 E28.423 F3600
G1 X95.09 Y92.16 E28.564 F3600
G1 X95.95 Y91.68 E28.705 F3600
G1 X95.95 Y91.68 E28.705 F3600
G1 X96.86 Y91.30 E28.846 F3600
G1 X96.86 Y91.30 E28.846 F3600
G1 X97.79 Y91.02 E28.985 F3600
G1 X98.76 Y90.83 E29.126 F3600
G1 X99.75 Y90.75 E29.267 F3600
G1 X100.73 Y90.78 E29.408 F3600
G1 X101.71 Y90.91 E29.548 F3600
G1 X102.66 Y91.14 E29.689 F3600
G1 X103.59 Y91.48 E29.830 F3600
G1 X104.47 Y91.91 E29.970 F3600
G1 X105.30 Y92.43 E30.110 F3600
G1 X106.09 Y93.04 E30.252 F3600
G1 X106.78 Y93.71 E30.390 F3600
G1 X106.78 Y93.72 E30.390 F3600
G1 X107.42 Y94.49 E30.533 F3600
G1 X107.96 Y95.30 E30.673 F3600
G1 X108.42 Y96.18 E30.814 F3600
G1 X108.78 Y97.10 E30.955 F3600
G1 X109.03 Y98.04 E31.095 F3600
G1 X109.19 Y99.01 E31.235 F3600
G1 X109.24 Y100.00 E31.377 F3600
G1 X109.19 Y100.99 E31.518 F3600
G1 X109.03 Y101.95 E31.658 F3600
G1 X108.78 Y102.90 E31.798 F3600
G1 X108.41 Y103.83 E31.940 F3600
G1 E28.940 F1800
G0 X101.15 Y101.99 F6000
G1 E31.940 F1800
G1 X101.16 Y101.98 E31.942 F3600
G1 X101.18 Y101.97 E31.944 F3600
G1 X101.19 Y101.96 E31.948 F3600
G1 X101.22 Y101.95 E31.951 F3600
G1 X101.33 Y102.17 E31.987 F3600
G1 X101.15 Y101.99 E32.023 F3600
G1 X100.81 Y102.16 E32.078 F3600
G1 X100.81 Y102.15 E32.079 F3600
G1 X100.83 Y102.14 E32.081 F3600
G1 X100.85 Y102.13 E32.085 F3600
G1 X100.87 Y102.13 E32.088 F3600
G1 X100.94 Y102.37 E32.124 F3600
G1 X100.81 Y102.16 E32.160 F3600
G1 X100.53 Y102.49 E32.221 F3600
G1 X100.53 Y102.47 E32.224 F3600
G1 X100.53 Y102.49 E32.228 F3600
G1 X100.51 Y102.41 E32.240 F3600
G1 X100.46 Y102.25 E32.263 F3600
G1 X100.47 Y102.25 E32.265 F3600
G1 X100.47 Y102.25 E32.265 F3600
G1 X100.47 Y102.25 E32.265 F3600
G1 X100.48 Y102.25 E32.266 F3600
G1 X100.50 Y102.24 E32.269 F3600
G1 X100.53 Y102.46 E32.300 F3600
G1 X100.53 Y102.49 E32.305 F3600
G1 X100.11 Y102.55 E32.366 F3600
G1 X100.10 Y102.52 E32.370 F3600
G1 X100.10 Y102.55 E32.373 F3600
G1 X100.10 Y102.52 E32.377 F3600
G1 X100.07 Y102.30 E32.409 F3600
G1 X100.09 Y102.30 E32.412 F3600
G1 X100.11 Y102.30 E32.414 F3600
G1 X100.11 Y102.45 E32.436 F3600
G1 X100.11 Y102.55 E32.450 F3600
G1 X99.72 Y102.28 E32.516 F3600
G1 X99.67 Y102.53 E32.552 F3600
G1 X99.67 Y102.28 E32.588 F3600
G1 X99.68 Y102.28 E32.589 F3600
G1 X99.70 Y102.28 E32.592 F3600
G1 X99.72 Y102.28 E32.595 F3600
G1 X99.26 Y102.41 E32.664 F3600
G1 X99.25 Y102.44 E32.668 F3600
G1 X99.25 Y102.42 E32.672 F3600
G1 X99.25 Y102.44 E32.675 F3600
G1 X99.28 Y102.31 E32.694 F3600
G1 X99.30 Y102.19 E32.711 F3600
G1 X99.31 Y102.20 E32.712 F3600
G1 X99.31 Y102.19 E32.712 F3600
G1 X99.31 Y102.20 E32.712 F3600
G1 X99.31 Y102.20 E32.713 F3600
G1 X99.32 Y102.20 E32.714 F3600
G1 X99.34 Y102.21 E32.717 F3600
G1 X99.26 Y102.41 E32.748 F3600
G1 X98.93 Y102.04 E32.818 F3600
G1 X98.96 Y102.05 E32.822 F3600
G1 X98.98 Y102.06 E32.825 F3600
